(File created: Tuesday December 16 2025 - 02:30 PM)
(for Carvera from Vectric)
(VECTRIC POST REVISION)
(AA6001CAC4E9696A3EC4F9B49CBCFB6D)
G90G54
G17
G21

T1M6
G0Z20.320
G0X0.000Y0.000
S10000M3
G0X63.460Y0.001
G0Z5.080
G1Z-1.000F300.0
G1X0.040F1000.0
X0.004Y0.004
X0.000Y0.058
Y2.224
X63.500
Y4.446
X0.000
Y6.669
X63.500
Y8.891
X0.000
Y11.114
X63.500
Y13.336
X38.146
X38.261Y13.531
X38.274Y13.557
X38.411Y13.794
X38.425Y13.820
X38.546Y14.025
X38.673Y14.191
X38.772Y14.323
X38.920Y14.506
X38.941Y14.527
X38.978Y14.565
X39.016Y14.602
X39.053Y14.640
X39.091Y14.677
X39.128Y14.715
X39.259Y14.857
X39.371Y15.015
X39.463Y15.184
X39.501Y15.259
X39.623Y15.559
X63.500
Y17.781
X40.226
X40.247Y17.842
X40.261Y17.871
X40.272Y17.888
X40.293Y17.909
X40.331Y17.946
X40.368Y17.984
X40.406Y18.022
X40.444Y18.059
X40.481Y18.097
X40.519Y18.134
X40.556Y18.172
X40.686Y18.314
X40.799Y18.472
X40.891Y18.641
X40.928Y18.716
X40.966Y18.791
X41.060Y19.004
X41.122Y19.229
X41.127Y19.243
X41.164Y19.356
X41.202Y19.469
X41.273Y19.718
X41.277Y19.732
X41.315Y19.845
X41.337Y19.908
X41.373Y20.004
X63.500
Y22.226
X42.215
X42.228Y22.290
X42.265Y22.478
X42.287Y22.573
X42.338Y22.800
X42.355Y23.033
Y23.140
X42.393Y23.484
Y23.591
X42.430Y23.935
Y24.449
X63.500
Y26.671
X42.655
X42.656Y26.678
Y26.710
X42.687Y26.906
X42.730Y27.233
X42.769Y27.579
Y27.762
X42.806Y28.100
X42.841Y28.351
X42.874Y28.559
X42.918Y28.886
X42.919Y28.894
X63.500
Y31.116
X43.172
X43.179Y31.169
X43.213Y31.377
X43.246Y31.562
X43.257Y31.750
Y32.990
X43.246Y33.178
X43.217Y33.339
X63.500
Y35.561
X42.919
Y35.690
X42.956Y36.033
Y36.559
X42.945Y36.749
X42.911Y36.936
X42.855Y37.117
X42.818Y37.230
X42.780Y37.343
X42.742Y37.456
X42.705Y37.568
X42.667Y37.681
X42.633Y37.784
X63.500
Y40.006
X42.076
X42.062Y40.063
X42.024Y40.213
X42.002Y40.308
X41.916Y40.649
X41.878Y40.762
X41.841Y40.875
X41.803Y40.988
X41.799Y41.002
X41.728Y41.251
X41.690Y41.363
X41.653Y41.476
X41.530Y41.778
X41.492Y41.853
X41.454Y41.928
X41.417Y42.003
X41.379Y42.079
X41.342Y42.154
X41.304Y42.229
X63.500Y42.229
Y44.451
X39.365
X39.264Y44.545
X39.238Y44.596
X39.200Y44.671
X39.162Y44.746
X39.158Y44.757
X39.083Y44.944
X38.975Y45.197
X38.937Y45.272
X38.899Y45.348
X38.862Y45.423
X38.824Y45.498
X38.688Y45.734
X38.674Y45.761
X38.518Y46.025
X38.322Y46.284
X38.114Y46.531
X38.076Y46.568
X38.039Y46.606
X38.001Y46.643
X37.971Y46.674
X63.500
Y48.896
X35.034
X35.033Y48.898
X34.995Y48.935
X34.958Y48.973
X34.920Y49.010
X34.883Y49.048
X34.845Y49.086
X34.807Y49.123
X34.770Y49.161
X34.732Y49.198
X34.695Y49.236
X34.657Y49.273
X34.620Y49.311
X34.582Y49.349
X34.544Y49.386
X34.507Y49.424
X34.469Y49.461
X34.432Y49.499
X34.394Y49.536
X34.357Y49.574
X34.319Y49.612
X34.281Y49.649
X34.244Y49.687
X34.206Y49.724
X34.169Y49.762
X34.131Y49.799
X34.094Y49.837
X34.073Y49.858
X33.868Y50.100
X33.831Y50.138
X33.793Y50.175
X33.755Y50.213
X33.718Y50.250
X33.680Y50.288
X33.643Y50.325
X33.605Y50.363
X33.567Y50.401
X33.326Y50.605
X33.304Y50.626
X33.267Y50.664
X33.229Y50.701
X33.079Y50.838
X32.912Y50.955
X32.799Y51.030
X32.686Y51.105
X32.666Y51.119
X63.500
Y53.341
G0Z5.080
G0X29.596Y13.336
G1Z-1.000F300.0
G1X0.000F1000.0
Y15.559
X27.398
X27.377Y15.579
X27.340Y15.617
X27.302Y15.654
X27.265Y15.692
X27.227Y15.730
X27.190Y15.767
X27.152Y15.805
X27.114Y15.842
X27.077Y15.880
X27.039Y15.917
X27.002Y15.955
X26.964Y15.993
X26.927Y16.030
X26.722Y16.272
X26.531Y16.502
X26.335Y16.761
X26.179Y17.025
X26.141Y17.100
X26.104Y17.176
X26.066Y17.251
X26.028Y17.326
X25.920Y17.579
X25.916Y17.589
X25.878Y17.664
X25.841Y17.739
X25.827Y17.766
X25.816Y17.781
X0.000
Y20.004
X24.657
X24.632Y20.093
X24.594Y20.244
X24.557Y20.394
X24.519Y20.544
X24.482Y20.694
X24.431Y20.922
X24.414Y21.154
Y21.374
X24.376Y21.713
X24.339Y22.056
Y22.226
X0.000
Y24.449
X24.915
X24.993Y24.558
X25.123Y24.700
X25.161Y24.738
X25.198Y24.775
X25.236Y24.813
X25.273Y24.850
X25.311Y24.888
X25.348Y24.925
X25.386Y24.963
X25.407Y24.984
X25.426Y25.011
X25.507Y25.218
X25.554Y25.344
X25.585Y25.510
X25.619Y25.718
X25.660Y25.998
X25.691Y26.194
Y26.264
X25.729Y26.608
Y26.635
X25.724Y26.671
X0.000
Y28.894
X25.198
X25.180Y28.978
X25.134Y29.235
X25.093Y29.516
X25.059Y29.724
X25.030Y29.880
X24.992Y30.068
X24.970Y30.163
X24.933Y30.313
X24.882Y30.540
X24.868Y30.579
X24.778Y30.816
X24.740Y30.929
X24.725Y30.971
X24.682Y31.039
X24.639Y31.100
X24.627Y31.116
X0.000
Y33.339
X23.295
X23.279Y33.394
X23.218Y33.707
X23.189Y33.863
X23.143Y34.120
X23.101Y34.401
X23.062Y34.710
X23.026Y34.964
X22.993Y35.172
X22.955Y35.397
X22.926Y35.554
X22.924Y35.561
X0.000
Y37.784
X22.506
X22.486Y37.843
X22.464Y37.906
X22.389Y38.094
X22.313Y38.282
X22.223Y38.519
X22.185Y38.632
X22.148Y38.744
X22.110Y38.857
X22.073Y38.970
X22.035Y39.083
X21.998Y39.195
X21.960Y39.308
X21.874Y39.649
X21.837Y39.827
X21.822Y40.006
X0.000
Y42.229
X21.750
X21.786Y42.513
X21.822Y42.767
X21.837Y42.948
X21.874Y43.126
X21.927Y43.369
X21.998Y43.618
X22.002Y43.632
X22.039Y43.782
X22.101Y44.007
X22.152Y44.233
X22.174Y44.329
X22.199Y44.451
X0.000
Y46.674
X22.840
X22.947Y46.926
X22.985Y47.001
X23.022Y47.076
X23.060Y47.151
X23.098Y47.226
X23.254Y47.490
X23.329Y47.603
X23.475Y47.806
X23.517Y47.866
X23.577Y47.958
X23.591Y47.988
X23.699Y48.241
X23.704Y48.251
X23.726Y48.315
X23.783Y48.476
X23.812Y48.663
Y48.696
X23.823Y48.875
X23.826Y48.896
X0.000
Y51.119
X24.649
G0Z5.080
G0X63.500Y53.341
G1Z-1.000F300.0
G1X0.000F1000.0
Y55.564
X63.500
Y57.786
X0.000
Y60.009
X63.500
Y62.231
X0.000
Y64.454
X63.500
Y66.676
X0.000
Y68.899
X63.500
Y71.121
X0.000
Y73.344
X63.500
Y75.566
X0.000
Y77.789
X63.500
Y80.011
X0.000
Y82.234
X63.500
Y84.456
X0.000
Y86.678
X63.500
Y88.842
X63.496Y88.896
X63.460Y88.899
X0.040
G0Z5.080
G0X0.000Y0.058
G1Z-1.000F300.0
G1X0.004Y0.004F1000.0
X0.058Y0.000
X63.442
X63.496Y0.004
X63.500Y0.058
Y88.842
X63.496Y88.896
X63.442Y88.900
X0.058
X0.004Y88.896
X0.000Y88.842
Y0.058
G0Z5.080
G0X21.822Y42.767
G1Z-1.000F300.0
G1X21.874Y43.126F1000.0
X21.927Y43.369
X21.998Y43.618
X22.002Y43.632
X22.039Y43.782
X22.101Y44.007
X22.152Y44.233
X22.174Y44.329
X22.212Y44.517
X22.241Y44.673
X22.302Y44.985
X22.340Y45.135
X22.378Y45.285
X22.400Y45.381
X22.453Y45.624
X22.524Y45.872
X22.614Y46.109
X22.689Y46.297
X22.764Y46.485
X22.839Y46.673
X22.947Y46.926
X22.985Y47.001
X23.022Y47.076
X23.060Y47.151
X23.098Y47.226
X23.254Y47.490
X23.329Y47.603
X23.475Y47.806
X23.517Y47.866
X23.577Y47.958
X23.591Y47.988
X23.699Y48.241
X23.704Y48.251
X23.726Y48.315
X23.783Y48.476
X23.812Y48.663
Y48.696
X23.853Y49.051
G2X23.951Y49.517I1.585J-0.092
G1X23.989Y49.630
X24.079Y49.867
X24.102Y49.930
X24.192Y50.167
X24.214Y50.231
X24.252Y50.344
X24.375Y50.646
X24.413Y50.721
X24.450Y50.796
X24.606Y51.060
X24.752Y51.262
X24.794Y51.323
X24.869Y51.436
X25.015Y51.638
X25.236Y51.904
X25.273Y51.941
X25.591Y52.195
X25.704Y52.270
X25.817Y52.345
X25.929Y52.420
G2X26.556Y52.695I0.936J-1.282
G2X27.016Y52.763I0.460J-1.519
G1X27.316
X27.591Y52.739
X27.698Y52.775
X27.810Y52.812
X27.923Y52.850
X28.036Y52.887
X28.148Y52.925
X28.397Y52.996
X28.640Y53.049
X29.045Y53.101
X29.270
G2X30.017Y52.915I0.000J-1.588
G2X30.486Y52.580I-0.672J-1.438
G1X30.508Y52.559
X30.749Y52.354
X30.787Y52.317
X30.825Y52.279
X30.862Y52.242
X30.900Y52.204
X30.937Y52.167
X30.958Y52.146
X31.085Y52.049
X31.118Y52.027
X31.306Y51.914
X31.332Y51.900
X31.569Y51.764
X31.757Y51.651
X31.945Y51.538
X31.971Y51.524
X32.046Y51.487
X32.283Y51.350
X32.309Y51.336
X32.573Y51.180
X32.686Y51.105
X32.799Y51.030
X32.912Y50.955
X33.229Y50.701
X33.267Y50.664
X33.304Y50.626
X33.326Y50.605
X33.567Y50.401
X33.605Y50.363
X33.643Y50.325
X33.680Y50.288
X33.718Y50.250
X33.755Y50.213
X33.793Y50.175
X33.831Y50.138
X33.868Y50.100
X34.073Y49.858
X34.094Y49.837
X34.131Y49.799
X34.169Y49.762
X34.206Y49.724
X34.244Y49.687
X34.281Y49.649
X34.319Y49.612
X34.357Y49.574
X34.394Y49.536
X34.432Y49.499
X34.469Y49.461
X34.507Y49.424
X34.544Y49.386
X34.582Y49.349
X34.620Y49.311
X34.657Y49.273
X34.695Y49.236
X34.732Y49.198
X34.770Y49.161
X34.807Y49.123
X34.845Y49.086
X34.883Y49.048
X34.920Y49.010
X34.958Y48.973
X34.995Y48.935
X35.033Y48.898
X35.238Y48.656
X35.258Y48.635
X35.296Y48.597
X35.333Y48.560
X35.371Y48.522
X35.392Y48.501
X35.402Y48.495
X35.428Y48.481
X35.503Y48.443
X35.740Y48.307
X35.928Y48.194
X35.954Y48.180
X36.308Y47.953
X36.557Y47.750
X36.684Y47.653
X36.834Y47.540
X36.984Y47.427
X37.045Y47.385
X37.157Y47.310
X37.270Y47.235
X37.383Y47.160
X37.496Y47.085
X37.813Y46.831
X37.851Y46.794
X37.889Y46.756
X37.926Y46.718
X37.964Y46.681
X38.001Y46.643
X38.039Y46.606
X38.076Y46.568
X38.114Y46.531
X38.322Y46.284
X38.518Y46.025
X38.674Y45.761
X38.688Y45.734
X38.824Y45.498
X38.862Y45.423
X38.899Y45.348
X38.937Y45.272
X38.975Y45.197
X39.083Y44.944
X39.158Y44.757
X39.162Y44.746
X39.200Y44.671
X39.238Y44.596
X39.264Y44.545
X39.391Y44.426
X39.429Y44.389
X39.467Y44.351
X39.488Y44.330
X39.713Y44.143
X39.750Y44.116
X40.068Y43.863
X40.105Y43.825
X40.126Y43.804
X40.368Y43.600
X40.406Y43.562
X40.444Y43.525
X40.481Y43.487
X40.519Y43.449
X40.556Y43.412
X40.594Y43.374
X40.631Y43.337
G2X40.942Y42.916I-1.104J-1.141
G1X40.998Y42.831
X41.154Y42.567
X41.262Y42.314
X41.267Y42.304
X41.304Y42.229
X41.342Y42.154
X41.379Y42.079
X41.417Y42.003
X41.454Y41.928
X41.492Y41.853
X41.530Y41.778
X41.653Y41.476
X41.690Y41.363
X41.728Y41.251
X41.799Y41.002
X41.803Y40.988
X41.841Y40.875
X41.878Y40.762
X41.916Y40.649
X42.002Y40.308
X42.024Y40.213
X42.062Y40.063
X42.099Y39.912
X42.153Y39.669
X42.175Y39.574
X42.236Y39.262
X42.265Y39.106
X42.311Y38.849
X42.346Y38.649
X42.400Y38.447
X42.404Y38.433
X42.442Y38.320
X42.479Y38.207
X42.502Y38.144
X42.592Y37.907
X42.630Y37.794
X42.667Y37.681
X42.705Y37.568
X42.742Y37.456
X42.780Y37.343
X42.818Y37.230
X42.855Y37.117
G2X42.956Y36.559I-1.486J-0.558
G1Y36.033
X42.919Y35.690
Y34.949
X42.942Y34.822
X42.979Y34.635
X43.017Y34.447
X43.054Y34.259
X43.092Y34.071
X43.137Y33.814
X43.175Y33.588
X43.213Y33.363
X43.257Y32.990
Y31.750
X43.213Y31.377
X43.179Y31.169
X43.142Y30.906
X43.104Y30.643
X43.069Y30.389
X43.032Y30.092
X42.994Y29.753
Y29.646
X42.956Y29.303
Y29.233
X42.918Y28.886
X42.874Y28.559
X42.841Y28.351
X42.806Y28.100
X42.769Y27.762
Y27.579
X42.730Y27.233
X42.687Y26.906
X42.656Y26.710
Y26.678
X42.611Y26.304
X42.574Y26.079
X42.528Y25.822
X42.503Y25.684
X42.468Y25.432
Y25.212
X42.430Y24.869
Y23.935
X42.393Y23.591
Y23.484
X42.355Y23.140
Y23.033
G2X42.287Y22.573I-1.588J0.000
G1X42.265Y22.478
X42.228Y22.290
X42.190Y22.102
X42.153Y21.914
G2X42.013Y21.449I-1.573J0.217
G1X41.905Y21.196
X41.868Y21.121
X41.863Y21.111
X41.755Y20.858
X41.717Y20.783
X41.680Y20.707
X41.642Y20.632
X41.605Y20.557
X41.567Y20.482
X41.562Y20.472
X41.454Y20.219
X41.450Y20.209
X41.427Y20.145
X41.337Y19.908
X41.315Y19.845
X41.277Y19.732
X41.273Y19.718
X41.202Y19.469
X41.164Y19.356
X41.127Y19.243
X41.122Y19.229
G2X40.966Y18.791I-1.557J0.309
G1X40.928Y18.716
X40.891Y18.641
G2X40.556Y18.172I-1.438J0.672
G1X40.519Y18.134
X40.481Y18.097
X40.444Y18.059
X40.406Y18.022
X40.368Y17.984
X40.331Y17.946
X40.293Y17.909
X40.272Y17.888
X40.261Y17.871
X40.247Y17.842
X40.225Y17.778
X40.187Y17.665
X40.150Y17.553
X40.112Y17.440
X40.108Y17.425
X40.070Y17.275
X40.033Y17.125
X39.995Y16.975
X39.958Y16.824
X39.887Y16.576
X39.882Y16.561
X39.845Y16.411
X39.807Y16.261
X39.770Y16.110
X39.732Y15.960
X39.695Y15.810
X39.624Y15.561
X39.501Y15.259
X39.463Y15.184
G2X39.128Y14.715I-1.438J0.672
G1X39.091Y14.677
X39.053Y14.640
X39.016Y14.602
X38.978Y14.565
X38.941Y14.527
X38.920Y14.506
X38.772Y14.323
X38.673Y14.191
X38.546Y14.025
X38.425Y13.820
X38.411Y13.794
X38.274Y13.557
X38.261Y13.531
X38.105Y13.267
X37.851Y12.949
X37.813Y12.911
G2X37.344Y12.577I-1.141J1.104
G1X37.269Y12.539
X37.194Y12.502
X37.119Y12.464
X37.044Y12.427
X36.969Y12.389
G2X36.221Y12.202I-0.747J1.401
G1X35.851
X35.838Y12.199
X35.815Y12.187
X35.578Y12.051
X35.503Y12.013
X35.428Y11.976
X35.353Y11.938
X35.278Y11.901
X35.203Y11.863
X35.127Y11.825
X35.052Y11.788
X34.750Y11.665
X34.687Y11.642
X34.450Y11.552
X34.201Y11.481
X33.889Y11.420
X33.516Y11.376
X33.140
X32.797Y11.413
G2X32.055Y11.600I0.005J1.587
G1X31.980Y11.638
X31.969Y11.642
X31.717Y11.750
X31.641Y11.788
G2X31.172Y12.122I0.672J1.438
G1X31.135Y12.160
X31.097Y12.198
X31.060Y12.235
X31.022Y12.273
X30.985Y12.310
X30.780Y12.552
X30.759Y12.573
X30.722Y12.611
X30.684Y12.648
X30.646Y12.686
X30.609Y12.724
X30.434Y12.923
X30.353Y12.976
X30.326Y12.990
X30.316Y12.995
X30.128Y13.070
X29.876Y13.178
X29.800Y13.216
X29.536Y13.372
X29.424Y13.447
X29.221Y13.593
X29.161Y13.635
G2X28.676Y14.093I0.823J1.357
G1X28.655Y14.114
X28.617Y14.151
X28.580Y14.189
X28.542Y14.227
X28.505Y14.264
X28.467Y14.302
X28.430Y14.339
X28.392Y14.377
X28.354Y14.414
X28.147Y14.661
X27.984Y14.868
X27.838Y15.070
X27.812Y15.107
X27.791Y15.128
X27.753Y15.166
X27.549Y15.408
X27.528Y15.429
X27.472Y15.486
X27.415Y15.542
X27.377Y15.579
X27.340Y15.617
X27.302Y15.654
X27.265Y15.692
X27.227Y15.730
X27.190Y15.767
X27.152Y15.805
X27.114Y15.842
X27.077Y15.880
X27.039Y15.917
X27.002Y15.955
X26.964Y15.993
X26.927Y16.030
X26.722Y16.272
X26.531Y16.502
X26.335Y16.761
X26.179Y17.025
X26.141Y17.100
X26.104Y17.176
X26.066Y17.251
X26.028Y17.326
X25.920Y17.579
X25.916Y17.589
X25.878Y17.664
X25.841Y17.739
X25.827Y17.766
X25.771Y17.851
X25.696Y17.964
X25.621Y18.076
X25.546Y18.189
X25.471Y18.302
X25.395Y18.414
X25.239Y18.678
X25.202Y18.754
X25.164Y18.829
X25.127Y18.904
X25.089Y18.979
X25.051Y19.054
X24.944Y19.307
X24.939Y19.317
X24.901Y19.392
X24.864Y19.468
X24.826Y19.543
X24.703Y19.845
X24.632Y20.093
X24.594Y20.244
X24.557Y20.394
X24.519Y20.544
X24.482Y20.694
G2X24.414Y21.154I1.519J0.460
G1Y21.374
X24.376Y21.713
X24.339Y22.056
Y22.394
X24.383Y22.767
X24.416Y22.975
X24.458Y23.256
X24.519Y23.568
G2X24.676Y24.006I1.557J-0.309
G1X24.713Y24.081
X24.751Y24.156
X24.788Y24.231
G2X25.123Y24.700I1.438J-0.672
G1X25.161Y24.738
X25.198Y24.775
X25.236Y24.813
X25.273Y24.850
X25.311Y24.888
X25.348Y24.925
X25.386Y24.963
X25.407Y24.984
X25.426Y25.011
X25.507Y25.218
X25.554Y25.344
X25.585Y25.510
X25.619Y25.718
X25.660Y25.998
X25.691Y26.194
Y26.264
X25.729Y26.608
Y26.635
X25.694Y26.886
X25.660Y27.094
X25.646Y27.157
X25.609Y27.307
X25.571Y27.458
X25.534Y27.608
X25.496Y27.758
X25.492Y27.773
X25.454Y27.885
X25.383Y28.134
X25.346Y28.284
X25.308Y28.435
X25.271Y28.585
X25.233Y28.735
X25.180Y28.978
X25.134Y29.235
X25.093Y29.516
X25.059Y29.724
X25.030Y29.880
X24.992Y30.068
X24.970Y30.163
X24.933Y30.313
X24.882Y30.540
X24.868Y30.579
X24.778Y30.816
X24.740Y30.929
X24.725Y30.971
X24.682Y31.039
X24.639Y31.100
X24.540Y31.231
X24.392Y31.414
X24.372Y31.435
X24.334Y31.473
X24.296Y31.511
X24.076Y31.776
X23.849Y32.130
X23.812Y32.205
X23.774Y32.280
X23.736Y32.355
X23.723Y32.382
X23.586Y32.618
X23.548Y32.694
X23.511Y32.769
X23.473Y32.844
X23.350Y33.146
X23.279Y33.394
X23.218Y33.707
X23.189Y33.863
X23.143Y34.120
X23.101Y34.401
X23.062Y34.710
X23.026Y34.964
X22.993Y35.172
X22.955Y35.397
X22.926Y35.554
X22.888Y35.741
X22.850Y35.929
X22.805Y36.186
X22.761Y36.514
X22.738Y36.643
X22.692Y36.900
X22.678Y36.964
X22.625Y37.207
X22.587Y37.395
X22.542Y37.652
X22.527Y37.722
X22.486Y37.843
X22.464Y37.906
X22.389Y38.094
X22.313Y38.282
X22.223Y38.519
X22.185Y38.632
X22.148Y38.744
X22.110Y38.857
X22.073Y38.970
X22.035Y39.083
X21.998Y39.195
X21.960Y39.308
X21.874Y39.649
X21.822Y40.008
X21.784Y40.309
X21.746Y40.655
Y41.026
X21.708Y41.369
Y41.857
X21.747Y42.204
X21.786Y42.513
X21.822Y42.767
G0Z5.080
G0X63.460Y0.001
G1Z-2.000F300.0
G1X0.040F1000.0
X0.004Y0.004
X0.000Y0.058
Y2.224
X63.500
Y4.446
X0.000
Y6.669
X63.500
Y8.891
X35.448
X35.541Y8.932
X35.616Y8.970
X35.903Y9.143
X36.117Y9.098
X36.318Y9.059
X36.522Y9.046
X36.559
X36.749Y9.057
X36.936Y9.091
X37.117Y9.147
X37.325Y9.224
X37.520Y9.329
X37.698Y9.460
X37.848Y9.572
X37.909Y9.614
X38.076Y9.731
X38.227Y9.868
X38.264Y9.906
X38.302Y9.943
X38.339Y9.981
X38.377Y10.018
X38.598Y10.284
X38.743Y10.486
X38.761Y10.511
X38.964
X39.168Y10.524
X39.369Y10.564
X39.525Y10.593
X39.732Y10.627
X39.934Y10.687
X40.125Y10.773
X40.294Y10.865
X40.452Y10.978
X40.594Y11.108
X40.600Y11.114
X63.500
Y13.336
X41.644
X41.672Y13.492
X41.702Y13.648
X41.739Y13.836
X41.761Y13.931
X41.801Y14.091
X41.853Y14.117
X41.928Y14.155
X41.939Y14.160
X42.057Y14.204
X42.266Y14.272
X42.464Y14.369
X42.648Y14.493
X42.811Y14.640
X42.848Y14.677
X42.886Y14.715
X43.023Y14.866
X43.140Y15.033
X43.261Y15.227
X43.354Y15.438
X43.387Y15.559
X63.500
Y17.781
X43.926
X43.956Y17.931
X43.978Y18.027
X44.039Y18.339
X44.081Y18.620
X44.119Y18.883
X44.144Y19.021
X44.194Y19.334
X44.234Y19.684
X44.269Y20.004
X63.500
Y22.226
X44.497
Y22.351
X44.535Y22.695
Y23.216
X44.572Y23.559
Y23.704
X44.595Y23.831
X44.632Y24.018
X44.670Y24.206
X44.708Y24.394
X44.720Y24.449
X63.500
Y26.671
X44.985
Y26.790
X44.975Y26.969
X44.945Y27.145
X44.910Y27.400
X44.885Y27.636
X44.910Y27.917
Y28.036
X44.922Y28.073
X44.959Y28.186
X44.997Y28.299
X45.034Y28.412
X45.105Y28.660
X45.110Y28.675
X45.172Y28.894
X63.500
Y31.116
X45.412
X45.436Y31.337
Y32.276
X45.398Y32.622
X45.358Y32.932
X45.309Y33.244
X45.288Y33.339
X63.500
Y35.561
X45.068
X45.097Y35.800
X45.136Y36.146
Y36.672
X45.125Y36.860
X45.091Y37.045
X45.054Y37.271
X45.016Y37.496
X44.960Y37.784
X63.500
Y40.006
X44.499
X44.497Y40.021
Y40.054
X44.480Y40.286
X44.429Y40.514
X44.391Y40.664
X44.354Y40.814
X44.316Y40.964
X44.245Y41.213
X44.241Y41.227
X44.170Y41.476
X44.080Y41.713
X44.005Y41.901
X43.930Y42.089
X43.870Y42.229
X63.500
Y44.451
X42.917
X42.915Y44.456
X42.893Y44.520
X42.770Y44.822
X42.765Y44.832
X42.657Y45.085
X42.619Y45.160
X42.582Y45.235
X42.544Y45.310
X42.507Y45.385
X42.370Y45.622
X42.356Y45.648
X42.200Y45.912
X42.084Y46.079
X41.946Y46.230
X41.909Y46.267
X41.871Y46.305
X41.834Y46.343
X41.796Y46.380
X41.759Y46.418
X41.721Y46.455
X41.683Y46.493
X41.646Y46.531
X41.608Y46.568
X41.571Y46.606
X41.533Y46.643
X41.503Y46.674
X63.500
Y48.896
X39.728
X39.692Y48.935
X39.654Y48.973
X39.617Y49.010
X39.596Y49.031
X39.477Y49.184
X39.340Y49.321
X39.187Y49.441
X39.166Y49.461
X39.128Y49.499
X39.091Y49.536
X38.845Y49.744
X38.661Y49.891
X38.640Y49.912
X38.602Y49.950
X38.565Y49.987
X38.527Y50.025
X38.490Y50.062
X38.452Y50.100
X38.415Y50.138
X38.394Y50.159
X38.246Y50.342
X38.096Y50.530
X37.889Y50.776
X37.851Y50.814
X37.813Y50.852
X37.776Y50.889
X37.738Y50.927
X37.610Y51.045
X37.511Y51.119
X63.500
Y53.341
X35.031
X34.992Y53.426
X34.954Y53.501
X34.798Y53.765
X34.602Y54.025
X34.502Y54.156
X34.389Y54.306
X34.169Y54.571
X34.131Y54.609
X34.094Y54.646
X33.943Y54.784
X33.776Y54.900
X33.663Y54.975
X33.603Y55.017
X33.433Y55.142
X33.249Y55.244
X33.094Y55.316
X32.933Y55.371
X32.766Y55.409
X32.560Y55.483
X32.344Y55.529
X32.126Y55.544
X31.863
X31.539Y55.510
X31.538Y55.511
X31.501Y55.548
X31.485Y55.564
X63.500
Y57.786
G0Z5.080
G0X32.144Y8.891
G1Z-2.000F300.0
G1X0.000F1000.0
Y11.114
X27.935
X27.904Y11.146
X27.866Y11.183
X27.828Y11.221
X27.624Y11.463
X27.603Y11.484
X27.398Y11.726
X27.271Y11.869
X27.161Y12.027
X27.119Y12.087
X26.974Y12.290
X26.945Y12.331
X26.889Y12.385
X26.851Y12.423
X26.830Y12.444
X26.704Y12.541
X26.643Y12.583
X26.530Y12.658
X26.363Y12.774
X26.213Y12.911
X26.175Y12.949
X26.138Y12.987
X26.100Y13.024
X26.062Y13.062
X25.944Y13.190
X25.839Y13.331
X25.836Y13.336
X0.000
Y15.559
X24.918
X24.917Y15.564
X24.878Y15.762
X24.865Y15.964
X24.842Y16.090
X24.796Y16.347
X24.782Y16.411
X24.745Y16.561
X24.740Y16.576
X24.703Y16.688
X24.632Y16.937
X24.628Y16.951
X24.590Y17.064
X24.568Y17.128
X24.493Y17.316
X24.402Y17.553
X24.380Y17.616
X24.317Y17.781
X0.000
Y20.004
X23.496
X23.486Y20.063
X23.474Y20.252
Y20.435
X23.437Y20.778
Y21.304
X23.474Y21.648
X23.513Y21.989
X23.543Y22.226
X0.000
Y24.449
X23.840
X23.851Y24.544
X23.851Y24.555
X23.850Y24.611
Y25.024
X23.867Y25.257
X23.918Y25.484
X23.940Y25.579
X23.978Y25.767
X24.000Y25.894
X24.041Y26.244
X24.076Y26.495
X24.031Y26.669
X24.030Y26.671
X0.000
Y28.894
X23.307
X23.285Y28.936
X23.248Y29.011
X23.210Y29.086
X23.173Y29.162
X23.142Y29.223
X23.061Y29.334
X22.949Y29.484
X22.803Y29.687
X22.777Y29.724
X22.756Y29.745
X22.718Y29.782
X22.514Y30.024
X22.493Y30.045
X22.272Y30.311
X22.147Y30.480
X22.046Y30.665
X22.032Y30.691
X21.895Y30.928
X21.858Y31.003
X21.820Y31.078
X21.801Y31.116
X0.000
Y33.339
X21.417
X21.410Y33.386
X21.373Y33.649
X21.335Y33.912
X21.296Y34.222
X21.272Y34.351
X21.235Y34.539
X21.197Y34.727
X21.152Y34.984
X21.114Y35.210
X21.100Y35.273
X21.062Y35.423
X21.028Y35.561
X0.000
Y37.784
X20.306
X20.269Y37.880
X20.232Y37.993
X20.194Y38.106
X20.172Y38.169
X20.081Y38.406
X20.020Y38.608
X19.987Y38.817
X19.954Y39.002
X19.942Y39.190
Y39.335
X19.905Y39.678
Y40.006
X0.000
Y42.229
X20.059
X20.093Y42.539
Y42.792
X20.055Y43.135
Y43.505
X20.018Y43.849
Y43.956
X19.980Y44.300
Y44.451
X0.000
Y46.674
X19.942
Y47.005
X19.980Y47.348
Y47.418
X20.018Y47.762
Y47.832
X20.055Y48.175
X20.069Y48.376
X20.108Y48.575
X20.145Y48.762
X20.179Y48.896
X0.000
Y51.119
X21.009
X21.031Y51.172
X21.036Y51.182
X21.104Y51.355
X21.138Y51.485
X21.175Y51.635
X21.213Y51.786
X21.250Y51.936
X21.288Y52.086
X21.310Y52.182
X21.363Y52.425
X21.401Y52.575
X21.438Y52.725
X21.476Y52.875
X21.513Y53.026
X21.551Y53.176
X21.598Y53.341
X0.000
Y55.564
X23.082
G0Z5.080
G0X63.500Y57.786
G1Z-2.000F300.0
G1X0.000F1000.0
Y60.009
X63.500
Y62.231
X0.000
Y64.454
X63.500
Y66.676
X0.000
Y68.899
X63.500
Y71.121
X0.000
Y73.344
X63.500
Y75.566
X0.000
Y77.789
X63.500
Y80.011
X0.000
Y82.234
X63.500
Y84.456
X0.000
Y86.678
X63.500
Y88.842
X63.496Y88.896
X63.460Y88.899
X0.040
G0Z5.080
G0X44.354Y40.814
G1Z-2.000F300.0
G1X44.391Y40.664F1000.0
X44.429Y40.514
G2X44.497Y40.054I-1.519J-0.460
G1Y40.021
X44.535Y39.683
X44.569Y39.432
X44.579Y39.386
X44.632Y39.143
X44.670Y38.956
X44.692Y38.860
X44.745Y38.617
X44.767Y38.522
X44.771Y38.508
X44.842Y38.259
X44.880Y38.109
X44.917Y37.959
X44.955Y37.808
X45.016Y37.496
X45.054Y37.271
X45.091Y37.045
X45.136Y36.672
Y36.146
X45.097Y35.800
X45.060Y35.499
X45.023Y35.202
Y35.132
X44.985Y34.788
Y34.761
X45.016Y34.565
X45.058Y34.285
X45.081Y34.162
X45.143Y33.938
X45.180Y33.788
X45.218Y33.638
X45.256Y33.487
X45.309Y33.244
X45.358Y32.932
X45.398Y32.622
X45.436Y32.276
Y31.337
X45.399Y30.993
Y30.736
X45.361Y30.392
Y30.134
X45.321Y29.779
X45.283Y29.516
X45.242Y29.235
X45.180Y28.923
X45.110Y28.675
X45.105Y28.660
X45.034Y28.412
X44.997Y28.299
X44.959Y28.186
X44.922Y28.073
X44.910Y28.036
Y27.917
X44.885Y27.636
X44.910Y27.400
X44.945Y27.145
X44.985Y26.790
Y26.377
X44.967Y26.133
X44.985Y25.888
Y25.776
X44.933Y25.371
X44.880Y25.128
X44.842Y24.978
X44.805Y24.828
X44.783Y24.732
X44.730Y24.489
X44.708Y24.394
X44.670Y24.206
X44.632Y24.018
X44.595Y23.831
X44.572Y23.704
Y23.559
X44.535Y23.216
Y22.695
X44.497Y22.351
Y21.868
X44.459Y21.525
Y21.417
X44.421Y21.071
X44.377Y20.744
X44.344Y20.536
X44.302Y20.255
X44.272Y20.059
Y20.027
X44.234Y19.684
X44.194Y19.334
X44.144Y19.021
X44.119Y18.883
X44.081Y18.620
X44.039Y18.339
X43.978Y18.027
X43.956Y17.931
X43.918Y17.744
X43.881Y17.556
X43.843Y17.368
X43.806Y17.180
X43.776Y17.024
X43.739Y16.798
X43.677Y16.486
X43.607Y16.238
X43.547Y16.070
X43.494Y15.899
X43.456Y15.787
X43.419Y15.674
X43.414Y15.660
G2X43.140Y15.033I-1.557J0.309
G1X42.886Y14.715
X42.848Y14.677
X42.811Y14.640
G2X42.057Y14.204I-1.141J1.104
G1X41.939Y14.160
X41.928Y14.155
X41.853Y14.117
X41.801Y14.091
X41.761Y13.931
X41.739Y13.836
X41.702Y13.648
X41.672Y13.492
X41.626Y13.235
X41.589Y13.047
X41.536Y12.804
X41.465Y12.555
X41.342Y12.253
X41.304Y12.178
X41.267Y12.103
X41.229Y12.028
X41.191Y11.953
X41.154Y11.878
X41.017Y11.641
G2X40.707Y11.221I-1.414J0.721
G1X40.669Y11.183
X40.631Y11.146
X40.594Y11.108
G2X40.125Y10.773I-1.141J1.104
G2X39.525Y10.593I-0.747J1.401
G1X39.369Y10.564
X38.964Y10.511
X38.761
X38.743Y10.486
X38.598Y10.284
X38.377Y10.018
X38.339Y9.981
X38.302Y9.943
X38.264Y9.906
X38.227Y9.868
X37.909Y9.614
X37.848Y9.572
X37.698Y9.460
G2X37.117Y9.147I-1.026J1.211
G2X36.559Y9.046I-0.558J1.486
G1X36.522
X36.117Y9.098
X35.903Y9.143
X35.616Y8.970
X35.541Y8.932
G2X35.103Y8.776I-0.747J1.401
G1X35.088Y8.771
X34.976Y8.734
X34.727Y8.663
G2X34.267Y8.595I-0.460J1.519
G1X34.230
X33.887Y8.633
X33.817
X33.473Y8.670
X33.253
X32.898Y8.710
X32.585Y8.760
G2X32.055Y8.932I0.217J1.573
G1X31.980Y8.970
X31.904Y9.007
X31.829Y9.045
X31.754Y9.083
X31.721Y9.098
X31.666Y9.114
X31.417Y9.185
X31.115Y9.308
X30.762Y9.535
X30.729Y9.557
X30.702Y9.571
G2X30.233Y9.906I0.672J1.438
G1X30.196Y9.943
X30.158Y9.981
X30.120Y10.018
X29.916Y10.260
X29.890Y10.287
X29.603Y10.323
G2X28.861Y10.510I0.005J1.587
G1X28.786Y10.548
X28.711Y10.585
X28.474Y10.722
X28.448Y10.736
G2X27.979Y11.070I0.672J1.438
G1X27.941Y11.108
X27.904Y11.146
X27.866Y11.183
X27.828Y11.221
X27.624Y11.463
X27.603Y11.484
X27.398Y11.726
X27.161Y12.027
X27.119Y12.087
X26.974Y12.290
X26.945Y12.331
X26.889Y12.385
X26.851Y12.423
X26.830Y12.444
X26.704Y12.541
X26.643Y12.583
X26.530Y12.658
X26.213Y12.911
X26.175Y12.949
X26.138Y12.987
X26.100Y13.024
X26.062Y13.062
G2X25.752Y13.482I1.104J1.141
G1X25.696Y13.567
X25.564Y13.783
X25.508Y13.868
X25.352Y14.132
X25.314Y14.207
X25.277Y14.282
X25.154Y14.584
X25.083Y14.833
X25.045Y14.983
X24.992Y15.226
X24.970Y15.321
X24.917Y15.564
X24.865Y15.964
X24.842Y16.090
X24.796Y16.347
X24.782Y16.411
X24.745Y16.561
X24.740Y16.576
X24.703Y16.688
X24.632Y16.937
X24.628Y16.951
X24.590Y17.064
X24.568Y17.128
X24.493Y17.316
X24.402Y17.553
X24.380Y17.616
X24.290Y17.853
X24.267Y17.917
X24.177Y18.154
X24.154Y18.217
X24.150Y18.228
X24.042Y18.480
X24.037Y18.491
X23.999Y18.566
X23.891Y18.819
X23.801Y19.056
X23.779Y19.119
X23.688Y19.356
X23.651Y19.469
X23.613Y19.582
X23.576Y19.694
G2X23.474Y20.252I1.486J0.558
G1Y20.435
X23.437Y20.778
Y21.304
X23.474Y21.648
X23.513Y21.989
X23.552Y22.298
X23.590Y22.561
X23.627Y22.824
X23.665Y23.087
X23.707Y23.368
X23.744Y23.594
X23.790Y23.851
X23.812Y23.977
Y24.198
X23.851Y24.544
X23.851Y24.555
X23.850Y24.611
Y25.024
G2X23.918Y25.484I1.588J0.000
G1X23.940Y25.579
X23.978Y25.767
X24.000Y25.894
X24.041Y26.244
X24.076Y26.495
X24.031Y26.669
X24.027Y26.683
X23.989Y26.796
X23.951Y26.909
X23.914Y27.021
X23.876Y27.134
X23.854Y27.198
X23.764Y27.435
X23.726Y27.547
X23.704Y27.611
X23.580Y27.984
X23.576Y27.998
X23.505Y28.247
X23.467Y28.397
X23.430Y28.547
X23.392Y28.698
X23.376Y28.753
X23.361Y28.786
X23.323Y28.861
X23.285Y28.936
X23.248Y29.011
X23.210Y29.086
X23.173Y29.162
X23.142Y29.223
X23.061Y29.334
X22.949Y29.484
X22.803Y29.687
X22.777Y29.724
X22.756Y29.745
X22.718Y29.782
X22.514Y30.024
X22.493Y30.045
X22.272Y30.311
X22.046Y30.665
X22.032Y30.691
X21.895Y30.928
X21.858Y31.003
X21.820Y31.078
X21.783Y31.153
G2X21.596Y31.900I1.401J0.747
G1Y31.933
X21.558Y32.276
Y32.308
X21.527Y32.504
X21.484Y32.832
X21.446Y33.132
X21.410Y33.386
X21.373Y33.649
X21.335Y33.912
X21.296Y34.222
X21.272Y34.351
X21.235Y34.539
X21.197Y34.727
X21.152Y34.984
X21.114Y35.210
X21.100Y35.273
X21.062Y35.423
X21.025Y35.574
X20.972Y35.817
X20.936Y35.988
X20.908Y36.077
X20.870Y36.189
X20.799Y36.438
X20.795Y36.452
X20.758Y36.565
X20.720Y36.678
X20.698Y36.741
X20.623Y36.929
X20.532Y37.166
X20.510Y37.230
X20.419Y37.467
X20.382Y37.580
X20.360Y37.643
X20.269Y37.880
X20.232Y37.993
X20.194Y38.106
X20.172Y38.169
X20.081Y38.406
X19.987Y38.817
X19.942Y39.190
Y39.335
X19.905Y39.678
Y40.242
X19.942Y40.585
Y40.617
X19.980Y40.961
Y41.068
X20.018Y41.412
Y41.482
X20.055Y41.825
Y42.196
X20.093Y42.539
Y42.792
X20.055Y43.135
Y43.505
X20.018Y43.849
Y43.956
X19.980Y44.300
Y44.595
X19.942Y44.938
Y47.005
X19.980Y47.348
Y47.418
X20.018Y47.762
Y47.832
X20.055Y48.175
X20.108Y48.575
X20.145Y48.762
X20.232Y49.104
X20.269Y49.216
X20.273Y49.231
X20.397Y49.604
X20.419Y49.667
X20.510Y49.904
X20.532Y49.968
X20.623Y50.205
X20.645Y50.268
X20.768Y50.570
X20.773Y50.581
X20.881Y50.833
X20.918Y50.909
X20.923Y50.919
X21.031Y51.172
X21.036Y51.182
X21.104Y51.355
X21.138Y51.485
X21.175Y51.635
X21.213Y51.786
X21.250Y51.936
X21.288Y52.086
X21.310Y52.182
X21.363Y52.425
X21.401Y52.575
X21.438Y52.725
X21.476Y52.875
X21.513Y53.026
X21.551Y53.176
X21.622Y53.425
X21.659Y53.537
X21.783Y53.839
X21.820Y53.914
X21.957Y54.151
X22.089Y54.366
X22.164Y54.479
X22.310Y54.682
X22.473Y54.889
X22.681Y55.135
X22.701Y55.156
X22.906Y55.398
X22.944Y55.436
X22.981Y55.473
X23.019Y55.511
X23.261Y55.715
X23.282Y55.736
X23.319Y55.774
X23.561Y55.978
X23.583Y55.999
X23.824Y56.204
X23.846Y56.225
G2X24.315Y56.559I1.141J-1.104
G1X24.617Y56.682
X24.865Y56.753
X24.880Y56.757
G2X25.438Y56.859I0.558J-1.486
G1X25.738
X26.143Y56.806
X26.331Y56.769
X26.519Y56.731
X26.761Y56.678
X27.010Y56.607
X27.123Y56.570
X27.291Y56.510
X27.461Y56.457
X27.698Y56.367
X27.793Y56.332
X28.174Y56.517
X28.185Y56.522
X28.438Y56.630
G2X29.120Y56.784I0.682J-1.433
G1X29.345
G2X30.093Y56.597I0.000J-1.588
G1X30.168Y56.559
X30.243Y56.522
X30.318Y56.484
X30.393Y56.446
X30.468Y56.409
X30.543Y56.371
G2X31.012Y56.037I-0.672J-1.438
G1X31.050Y55.999
X31.088Y55.962
X31.125Y55.924
X31.163Y55.886
X31.200Y55.849
X31.238Y55.811
X31.275Y55.774
X31.313Y55.736
X31.351Y55.699
X31.388Y55.661
X31.426Y55.623
X31.463Y55.586
X31.501Y55.548
X31.538Y55.511
X31.539Y55.510
X31.863Y55.544
X32.126
G2X32.766Y55.409I0.000J-1.587
G2X33.249Y55.244I-0.265J-1.565
G1X33.603Y55.017
X33.663Y54.975
X33.776Y54.900
X34.094Y54.646
X34.131Y54.609
X34.169Y54.571
X34.389Y54.306
X34.502Y54.156
X34.602Y54.025
X34.798Y53.765
X34.954Y53.501
X34.992Y53.426
X35.063Y53.274
X35.118Y53.174
X35.255Y52.938
X35.269Y52.911
X35.381Y52.723
X35.437Y52.638
X35.479Y52.577
X35.592Y52.427
X35.688Y52.300
X35.709Y52.279
X35.747Y52.242
X35.784Y52.204
X35.822Y52.167
X35.847Y52.142
X35.879Y52.125
X35.954Y52.088
X36.029Y52.050
X36.293Y51.894
X36.406Y51.819
X36.519Y51.744
X36.631Y51.669
X36.744Y51.594
X36.857Y51.518
X36.970Y51.443
X37.055Y51.388
X37.081Y51.374
X37.318Y51.237
G2X37.738Y50.927I-0.721J-1.414
G1X37.776Y50.889
X37.813Y50.852
X37.851Y50.814
X37.889Y50.776
X38.096Y50.530
X38.246Y50.342
X38.394Y50.159
X38.415Y50.138
X38.452Y50.100
X38.490Y50.062
X38.527Y50.025
X38.565Y49.987
X38.602Y49.950
X38.640Y49.912
X38.661Y49.891
X38.845Y49.744
X39.091Y49.536
X39.128Y49.499
X39.166Y49.461
X39.187Y49.441
G2X39.596Y49.031I-0.899J-1.308
G1X39.617Y49.010
X39.654Y48.973
X39.692Y48.935
G2X40.003Y48.515I-1.104J-1.141
G1X40.116Y48.327
X40.228Y48.139
X40.341Y47.951
X40.397Y47.866
X40.472Y47.753
X40.547Y47.641
X40.622Y47.528
X40.697Y47.415
X40.723Y47.378
X40.744Y47.357
X40.782Y47.320
X40.819Y47.282
X40.840Y47.261
X41.082Y47.057
X41.120Y47.019
X41.141Y46.998
X41.383Y46.794
X41.420Y46.756
X41.458Y46.718
X41.496Y46.681
X41.533Y46.643
X41.571Y46.606
X41.608Y46.568
X41.646Y46.531
X41.683Y46.493
X41.721Y46.455
X41.759Y46.418
X41.796Y46.380
X41.834Y46.343
X41.871Y46.305
X41.909Y46.267
X41.946Y46.230
X42.200Y45.912
X42.356Y45.648
X42.370Y45.622
X42.507Y45.385
X42.544Y45.310
X42.582Y45.235
X42.619Y45.160
X42.657Y45.085
X42.765Y44.832
X42.770Y44.822
X42.893Y44.520
X42.915Y44.456
X42.990Y44.268
X42.995Y44.258
X43.033Y44.183
X43.140Y43.930
X43.145Y43.920
X43.183Y43.845
X43.220Y43.769
X43.258Y43.694
X43.296Y43.619
X43.333Y43.544
X43.441Y43.291
X43.516Y43.103
X43.591Y42.915
X43.667Y42.728
X43.742Y42.540
X43.817Y42.352
X43.822Y42.342
X43.930Y42.089
X44.005Y41.901
X44.080Y41.713
X44.170Y41.476
X44.241Y41.227
X44.245Y41.213
X44.316Y40.964
X44.354Y40.814
G0Z5.080
G0X63.500Y88.842
G1Z-2.000F300.0
G1X63.496Y88.896F1000.0
X63.442Y88.900
X0.058
X0.004Y88.896
X0.000Y88.842
Y0.058
X0.004Y0.004
X0.058Y0.000
X63.442
X63.496Y0.004
X63.500Y0.058
Y88.842
G0Z5.080
G0X63.460Y0.001
G1Z-3.000F300.0
G1X0.040F1000.0
X0.004Y0.004
X0.000Y0.058
Y2.224
X63.500
Y4.446
X0.000
Y6.669
X32.767
X32.756Y6.672
X32.692Y6.686
X32.484Y6.719
X32.282Y6.780
X32.244Y6.791
X31.562
X31.373Y6.803
X31.185Y6.837
X31.004Y6.893
X30.702Y7.016
X30.533Y7.108
X30.375Y7.220
X30.233Y7.351
X30.196Y7.388
X30.158Y7.426
X30.120Y7.463
X30.083Y7.501
X29.875Y7.747
X29.712Y7.954
X29.679Y7.994
X29.496
X29.263Y8.011
X29.036Y8.062
X28.941Y8.084
X28.758Y8.120
X28.580Y8.178
X28.410Y8.256
X28.146Y8.412
X27.979Y8.529
X27.828Y8.666
X27.791Y8.703
X27.753Y8.741
X27.716Y8.778
X27.678Y8.816
X27.640Y8.854
X27.603Y8.891
X0.000Y8.891
Y11.114
X25.634
X25.629Y11.117
X25.516Y11.192
X25.349Y11.309
X25.198Y11.446
X25.161Y11.484
X25.123Y11.521
X25.085Y11.559
X25.048Y11.596
X25.010Y11.634
X24.973Y11.672
X24.765Y11.918
X24.602Y12.125
X24.456Y12.327
X24.300Y12.591
X24.262Y12.667
X24.225Y12.742
X24.117Y12.995
X24.042Y13.182
X23.980Y13.336
X0.000
Y15.559
X23.408
X23.375Y15.727
X23.362Y15.931
Y16.377
X23.324Y16.720
Y16.866
X23.286Y17.209
Y17.290
X23.275Y17.327
X23.237Y17.440
X23.200Y17.553
X23.162Y17.665
X23.129Y17.781
X0.000
Y20.004
X22.758
X22.723Y20.328
Y20.591
X22.760Y20.934
Y21.417
X22.771Y21.596
X22.801Y21.772
X22.836Y22.024
Y22.226
X0.000
Y24.449
X22.319
X22.279Y24.651
X22.237Y24.932
X22.197Y25.242
X22.162Y25.496
X22.152Y25.541
X22.099Y25.784
X22.061Y25.972
X22.018Y26.204
X21.998Y26.270
X21.960Y26.383
X21.938Y26.446
X21.852Y26.671
X0.000
Y28.894
X20.902
X20.881Y28.936
X20.773Y29.189
X20.768Y29.199
X20.660Y29.452
X20.570Y29.689
X20.499Y29.938
X20.461Y30.088
X20.408Y30.331
X20.371Y30.519
X20.349Y30.614
X20.295Y30.857
X20.258Y31.045
X20.244Y31.116
X0.000
Y33.339
X19.884
X19.877Y33.380
X19.856Y33.446
X19.818Y33.559
X19.781Y33.672
X19.758Y33.735
X19.683Y33.923
X19.593Y34.160
X19.570Y34.224
X19.480Y34.461
X19.443Y34.574
X19.420Y34.637
X19.330Y34.874
X19.259Y35.123
X19.198Y35.435
X19.174Y35.561
X0.000
Y37.784
X18.758
X18.740Y37.944
X18.702Y38.288
Y38.621
X18.672Y38.817
X18.630Y39.097
X18.597Y39.305
X18.555Y39.586
X18.515Y39.936
X18.507Y40.006
X0.000
Y42.229
X18.402
Y42.491
X18.364Y42.834
Y42.942
X18.327Y43.285
Y43.318
X18.304Y43.444
X18.258Y43.701
X18.244Y43.765
X18.194Y43.992
X18.165Y44.080
X18.127Y44.193
X18.090Y44.305
X18.052Y44.418
X18.041Y44.451
X0.000
Y46.674
X17.751
X17.771Y46.781
X17.827Y46.962
X17.831Y46.976
X17.869Y47.127
X17.906Y47.277
X17.928Y47.372
X17.954Y47.511
X17.991Y47.774
X18.029Y48.037
X18.064Y48.288
Y48.320
X18.101Y48.663
Y48.733
X18.119Y48.896
X0.000
Y51.119
X18.276
X18.282Y51.147
X18.320Y51.297
X18.390Y51.546
X18.395Y51.560
X18.432Y51.711
X18.503Y51.959
X18.507Y51.974
X18.570Y52.198
X18.664Y52.411
X18.701Y52.487
X18.739Y52.562
X18.777Y52.637
X18.814Y52.712
X18.852Y52.787
X18.889Y52.862
X18.927Y52.938
X18.964Y53.013
X19.101Y53.249
X19.115Y53.276
X19.120Y53.286
X19.143Y53.341
X0.000
Y55.564
X19.388
X19.379Y55.642
X19.341Y55.985
Y56.023
X19.358Y56.255
X19.409Y56.482
X19.480Y56.731
X19.484Y56.746
X19.546Y56.970
X19.582Y57.141
X19.618Y57.324
X19.676Y57.502
X19.754Y57.672
X19.791Y57.747
X19.813Y57.786
X0.000
Y60.009
X21.745
G0Z5.080
G0X38.963Y6.669
G1Z-3.000F300.0
G1X39.428F1000.0
X39.530Y6.582
X39.551Y6.561
X39.589Y6.524
X39.627Y6.486
X39.664Y6.449
X39.910Y6.241
X40.105Y6.086
X40.321Y5.964
X40.497Y5.883
X40.683Y5.824
X40.875Y5.789
X41.068Y5.777
X41.181
X41.390Y5.791
X41.598Y5.833
X41.801Y5.903
X41.992Y6.000
X42.167Y6.121
X42.322Y6.261
X42.360Y6.298
X42.397Y6.336
X42.435Y6.374
X42.466Y6.405
X42.664Y6.540
X42.801Y6.669
X63.500
Y8.891
X43.527
X43.558Y9.163
X43.595Y9.461
X43.633Y9.802
X43.670Y10.098
X43.736
X43.943Y10.112
X44.149Y10.098
X44.337
X44.401Y10.099
X44.751Y10.060
X44.788
X44.981Y10.072
X45.173Y10.108
X45.359Y10.167
X45.535Y10.247
X45.798Y10.402
X45.949Y10.473
X46.118Y10.565
X46.276Y10.677
X46.418Y10.807
X46.455Y10.845
X46.493Y10.883
X46.630Y11.033
X46.686Y11.114
X63.500
Y13.336
X47.315
Y13.376
X47.304Y13.564
X47.271Y13.749
X47.233Y13.975
X47.187Y14.232
X47.162Y14.370
X47.127Y14.621
Y14.879
X47.089Y15.226
X47.073Y15.407
X47.042Y15.559
X63.500
Y17.781
X47.330
X47.338Y17.819
X47.383Y18.076
X47.413Y18.232
X47.452Y18.433
X47.465Y18.637
Y18.712
X47.428Y19.055
Y19.125
X47.390Y19.468
Y19.576
X47.353Y19.919
Y19.952
X47.347Y20.004
X63.500
Y22.226
X47.500
X47.500Y22.227
X47.540Y22.536
X47.578Y22.883
Y23.784
X47.540Y24.131
X47.503Y24.428
Y24.449
X63.500
Y26.671
X47.315
Y27.198
X47.350Y27.450
X47.387Y27.713
X47.421Y27.920
X47.454Y28.105
X47.465Y28.293
Y28.401
X47.503Y28.744
Y28.894
X63.500
Y31.116
X47.487
X47.503Y31.256
X47.540Y31.554
X47.571Y31.753
X47.609Y31.978
X47.646Y32.204
X47.676Y32.360
X47.715Y32.560
X47.728Y32.764
Y32.990
X47.711Y33.222
X47.685Y33.339
X63.500
Y35.561
X46.898
X46.895Y35.580
X46.864Y35.776
Y36.554
X46.902Y36.898
Y36.968
X46.939Y37.311
Y37.784
X63.500
Y40.006
X46.827
Y40.204
X46.789Y40.547
Y40.805
X46.751Y41.149
Y41.294
X46.714Y41.637
Y41.745
X46.676Y42.088
X46.661Y42.229
X63.500
Y44.451
X46.116
X46.038Y44.634
X46.001Y44.709
X45.963Y44.784
X45.926Y44.859
X45.770Y45.123
X45.695Y45.236
X45.549Y45.438
X45.328Y45.704
X45.291Y45.741
X45.253Y45.779
X45.215Y45.817
X45.178Y45.854
X44.912Y46.075
X44.781Y46.175
X44.593Y46.325
X44.442Y46.450
X44.380Y46.598
X44.358Y46.661
X44.354Y46.674
X63.500
Y48.896
X43.517
X43.429Y49.019
X43.299Y49.161
X43.262Y49.198
X43.224Y49.236
X43.186Y49.273
X43.149Y49.311
X43.111Y49.349
X43.074Y49.386
X43.036Y49.424
X42.999Y49.461
X42.961Y49.499
X42.940Y49.520
X42.793Y49.703
X42.693Y49.835
X42.580Y49.985
X42.538Y50.045
X42.392Y50.248
X42.350Y50.308
X42.275Y50.421
X42.200Y50.534
X42.084Y50.701
X41.946Y50.852
X41.909Y50.889
X41.871Y50.927
X41.834Y50.964
X41.796Y51.002
X41.759Y51.039
X41.721Y51.077
X41.683Y51.115
X41.679Y51.119
X63.500
Y53.341
X39.455
X39.223Y53.478
X39.148Y53.516
X39.121Y53.529
X39.036Y53.585
X38.923Y53.660
X38.863Y53.702
X38.732Y53.802
X38.548Y53.949
X38.527Y53.970
X38.490Y54.008
X38.452Y54.045
X38.415Y54.083
X38.377Y54.120
X38.339Y54.158
X38.302Y54.196
X38.264Y54.233
X38.227Y54.271
X38.206Y54.292
X38.059Y54.475
X37.851Y54.722
X37.813Y54.759
X37.793Y54.780
X37.605Y55.006
X37.400Y55.248
X37.362Y55.285
X37.212Y55.422
X37.045Y55.539
X37.009Y55.564
X63.500
Y57.786
X36.106
X36.058Y57.871
X35.945Y58.059
X35.813Y58.274
X35.737Y58.387
X35.621Y58.554
X35.484Y58.704
X35.238Y58.912
X35.050Y59.062
X34.855Y59.217
X34.639Y59.340
X34.463Y59.420
X34.277Y59.479
X34.085Y59.515
X33.892Y59.527
X33.328
X32.985Y59.489
X32.840
X32.646Y59.477
X32.454Y59.442
X32.268Y59.383
X32.092Y59.302
X32.017Y59.265
X31.789Y59.134
X31.777Y59.131
X31.649Y59.226
X31.446Y59.371
X31.386Y59.413
X31.183Y59.559
X30.968Y59.692
X30.780Y59.804
X30.543Y59.941
X30.377Y60.009
X63.500
Y62.231
X0.000
Y64.454
X63.500
Y66.676
X0.000
Y68.899
X63.500
Y71.121
X0.000
Y73.344
X63.500
Y75.566
X0.000
Y77.789
X63.500
Y80.011
X0.000
Y82.234
X63.500
Y84.456
X0.000
Y86.678
X63.500
Y88.842
X63.496Y88.896
X63.460Y88.899
X0.040
G0Z5.080
G0X0.000Y0.058
G1Z-3.000F300.0
G1X0.004Y0.004F1000.0
X0.058Y0.000
X63.442
X63.496Y0.004
X63.500Y0.058
Y88.842
X63.496Y88.896
X63.442Y88.900
X0.058
X0.004Y88.896
X0.000Y88.842
Y0.058
G0Z5.080
G0X19.409Y56.482
G1Z-3.000F300.0
G1X19.480Y56.731F1000.0
X19.484Y56.746
X19.546Y56.970
X19.582Y57.141
G2X19.754Y57.672I1.573J-0.217
G1X19.791Y57.747
X20.018Y58.101
X20.238Y58.366
X20.276Y58.404
X20.314Y58.441
X20.351Y58.479
X20.372Y58.500
X20.519Y58.684
X20.619Y58.815
X20.782Y59.022
X20.990Y59.268
X21.027Y59.306
X21.065Y59.343
X21.103Y59.381
X21.140Y59.418
X21.178Y59.456
X21.215Y59.494
X21.253Y59.531
X21.290Y59.569
X21.328Y59.606
X21.366Y59.644
X21.403Y59.681
X21.441Y59.719
X21.478Y59.757
X21.516Y59.794
X21.554Y59.832
X21.591Y59.869
G2X22.287Y60.289I1.141J-1.104
G2X22.845Y60.391I0.558J-1.486
G1X23.371
G2X24.118Y60.204I0.000J-1.588
G1X24.146Y60.190
G2X24.577Y60.574I1.254J-0.974
G2X25.513Y60.879I0.936J-1.282
G1X26.076
G2X26.824Y60.692I0.000J-1.587
G1X26.899Y60.655
X26.974Y60.617
X27.049Y60.580
X27.124Y60.542
X27.199Y60.504
X27.210Y60.500
X27.273Y60.477
X27.386Y60.440
X27.499Y60.402
X27.736Y60.312
X27.799Y60.289
X27.887Y60.261
X27.998Y60.240
X28.438
X28.782Y60.278
X28.932
X29.063Y60.273
X29.195Y60.278
X29.233
X29.637Y60.226
X29.978Y60.139
X29.993Y60.135
X30.241Y60.064
X30.543Y59.941
X30.780Y59.804
X30.968Y59.692
X31.183Y59.559
X31.386Y59.413
X31.446Y59.371
X31.649Y59.226
X31.777Y59.131
X31.789Y59.134
X32.017Y59.265
X32.092Y59.302
G2X32.840Y59.489I0.747J-1.401
G1X32.985
X33.328Y59.527
X33.892
G2X34.639Y59.340I0.000J-1.587
G2X35.050Y59.062I-0.672J-1.438
G1X35.238Y58.912
X35.484Y58.704
X35.737Y58.387
X35.813Y58.274
X35.945Y58.059
X36.058Y57.871
X36.194Y57.634
X36.302Y57.381
X36.307Y57.371
X36.430Y57.069
X36.468Y56.957
X36.505Y56.844
X36.576Y56.595
X36.580Y56.581
X36.651Y56.332
X36.689Y56.182
X36.693Y56.167
X36.764Y55.919
X36.792Y55.811
X36.794Y55.809
X36.927Y55.627
X36.984Y55.581
X37.045Y55.539
X37.362Y55.285
X37.400Y55.248
X37.605Y55.006
X37.793Y54.780
X37.813Y54.759
X37.851Y54.722
X38.059Y54.475
X38.206Y54.292
X38.227Y54.271
X38.264Y54.233
X38.302Y54.196
X38.339Y54.158
X38.377Y54.120
X38.415Y54.083
X38.452Y54.045
X38.490Y54.008
X38.527Y53.970
X38.548Y53.949
X38.732Y53.802
X38.863Y53.702
X38.923Y53.660
X39.036Y53.585
X39.121Y53.529
X39.148Y53.516
X39.223Y53.478
X39.487Y53.322
X39.600Y53.247
X39.685Y53.191
X39.873Y53.079
X40.088Y52.946
X40.201Y52.871
X40.519Y52.617
X40.556Y52.580
X40.594Y52.542
X40.631Y52.505
X40.852Y52.239
X40.965Y52.089
X41.077Y51.939
X41.190Y51.788
X41.393Y51.483
X41.449Y51.398
X41.524Y51.285
X41.566Y51.224
X41.683Y51.115
X41.721Y51.077
X41.759Y51.039
X41.796Y51.002
X41.834Y50.964
X41.871Y50.927
X41.909Y50.889
X41.946Y50.852
X42.200Y50.534
X42.275Y50.421
X42.350Y50.308
X42.392Y50.248
X42.538Y50.045
X42.580Y49.985
X42.693Y49.835
X42.793Y49.703
X42.940Y49.520
X42.961Y49.499
X42.999Y49.461
X43.036Y49.424
X43.074Y49.386
X43.111Y49.349
X43.149Y49.311
X43.186Y49.273
X43.224Y49.236
X43.262Y49.198
X43.299Y49.161
G2X43.634Y48.692I-1.104J-1.141
G1X43.671Y48.617
X43.709Y48.541
X43.746Y48.466
X43.784Y48.391
X43.892Y48.138
X43.897Y48.128
X43.934Y48.053
X44.057Y47.751
X44.128Y47.502
X44.166Y47.352
X44.170Y47.338
X44.241Y47.089
X44.279Y46.939
X44.316Y46.788
X44.321Y46.774
X44.358Y46.661
X44.380Y46.598
X44.442Y46.450
X44.593Y46.325
X44.781Y46.175
X44.912Y46.075
X45.178Y45.854
X45.215Y45.817
X45.253Y45.779
X45.291Y45.741
X45.328Y45.704
X45.549Y45.438
X45.695Y45.236
X45.770Y45.123
X45.926Y44.859
X45.963Y44.784
X46.001Y44.709
X46.038Y44.634
X46.146Y44.381
X46.237Y44.144
X46.274Y44.031
X46.312Y43.918
X46.350Y43.806
X46.420Y43.557
X46.425Y43.543
X46.462Y43.430
X46.533Y43.181
X46.600Y42.767
X46.639Y42.426
X46.676Y42.088
X46.714Y41.745
Y41.637
X46.751Y41.294
Y41.149
X46.789Y40.805
Y40.547
X46.827Y40.204
Y39.758
X46.864Y39.415
Y39.045
X46.902Y38.701
Y38.594
X46.939Y38.250
Y37.311
X46.902Y36.968
Y36.898
X46.864Y36.554
Y35.776
X46.895Y35.580
X46.932Y35.354
X46.955Y35.244
X47.015Y35.127
X47.053Y35.052
X47.067Y35.026
X47.203Y34.789
X47.241Y34.714
X47.278Y34.639
X47.316Y34.564
G2X47.472Y34.126I-1.401J-0.747
G1X47.477Y34.112
X47.548Y33.863
X47.585Y33.713
X47.589Y33.698
X47.660Y33.450
G2X47.728Y32.990I-1.519J-0.460
G1Y32.764
X47.676Y32.360
X47.646Y32.204
X47.609Y31.978
X47.571Y31.753
X47.540Y31.554
X47.503Y31.256
X47.465Y30.918
Y30.778
X47.503Y30.435
Y28.744
X47.465Y28.401
Y28.293
X47.421Y27.920
X47.387Y27.713
X47.350Y27.450
X47.315Y27.198
Y26.457
X47.353Y26.114
Y26.044
X47.390Y25.706
X47.428Y25.368
X47.465Y25.024
Y24.879
X47.503Y24.536
Y24.428
X47.540Y24.131
X47.578Y23.784
Y22.883
X47.540Y22.536
X47.500Y22.227
X47.458Y21.946
X47.425Y21.738
X47.387Y21.475
X47.352Y21.221
X47.315Y20.924
Y20.741
X47.299Y20.515
X47.315Y20.295
X47.353Y19.952
Y19.919
X47.390Y19.576
Y19.468
X47.428Y19.125
Y19.055
X47.465Y18.712
Y18.637
X47.413Y18.232
X47.383Y18.076
X47.338Y17.819
X47.300Y17.631
X47.247Y17.388
X47.176Y17.139
X47.172Y17.125
X47.101Y16.876
X47.063Y16.764
X47.059Y16.749
X46.997Y16.525
X46.977Y16.415
Y16.382
X46.944Y16.063
X46.962Y15.960
X47.000Y15.772
X47.037Y15.585
X47.089Y15.226
X47.127Y14.879
Y14.621
X47.162Y14.370
X47.187Y14.232
X47.233Y13.975
X47.271Y13.749
X47.315Y13.376
Y13.113
X47.275Y12.758
X47.239Y12.504
X47.187Y12.145
G2X46.897Y11.426I-1.573J0.217
G1X46.822Y11.313
X46.747Y11.200
X46.493Y10.883
X46.455Y10.845
X46.418Y10.807
G2X45.949Y10.473I-1.141J1.104
G1X45.798Y10.402
X45.535Y10.247
G2X44.788Y10.060I-0.747J1.401
G1X44.751
X44.401Y10.099
X44.337Y10.098
X44.149
X43.943Y10.112
X43.736Y10.098
X43.670
X43.633Y9.802
X43.595Y9.461
X43.558Y9.163
X43.520Y8.825
Y8.792
X43.468Y8.388
X43.430Y8.200
X43.392Y8.012
X43.339Y7.769
X43.302Y7.619
G2X43.145Y7.181I-1.557J0.309
G1X43.108Y7.106
G2X42.466Y6.405I-1.438J0.672
G1X42.435Y6.374
X42.397Y6.336
X42.360Y6.298
X42.322Y6.261
G2X41.181Y5.777I-1.141J1.104
G1X41.068
G2X40.321Y5.964I0.000J1.588
G2X39.910Y6.241I0.672J1.438
G1X39.664Y6.449
X39.627Y6.486
X39.589Y6.524
X39.551Y6.561
X39.530Y6.582
X39.288Y6.787
X39.251Y6.825
X39.213Y6.862
X39.176Y6.900
X39.163Y6.913
X39.124Y6.865
X38.920Y6.616
X38.715Y6.374
X38.678Y6.336
X38.640Y6.298
X38.602Y6.261
X38.565Y6.223
X38.527Y6.186
X38.490Y6.148
X38.452Y6.111
X38.415Y6.073
X38.377Y6.035
X38.111Y5.815
G2X37.531Y5.503I-1.026J1.211
G1X37.190Y5.416
X36.785Y5.364
X36.447
G2X35.306Y5.848I0.000J1.588
G1X35.268Y5.885
X35.230Y5.923
X35.193Y5.960
X35.155Y5.998
X35.118Y6.035
X35.080Y6.073
X35.043Y6.111
X35.005Y6.148
X34.967Y6.186
X34.930Y6.223
X34.892Y6.261
X34.882Y6.271
X34.756Y6.265
X34.643
G2X34.183Y6.333I0.000J1.588
G1X34.033Y6.371
X33.883Y6.409
X33.634Y6.479
X33.620Y6.484
X33.470Y6.521
X33.406Y6.535
X33.149Y6.581
X32.906Y6.634
X32.756Y6.672
X32.692Y6.686
X32.282Y6.780
X32.244Y6.791
X31.562
G2X31.004Y6.893I0.000J1.588
G1X30.702Y7.016
G2X30.233Y7.351I0.672J1.438
G1X30.196Y7.388
X30.158Y7.426
X30.120Y7.463
X30.083Y7.501
X29.875Y7.747
X29.712Y7.954
X29.679Y7.994
X29.496
G2X29.036Y8.062I0.000J1.588
G1X28.941Y8.084
G2X28.410Y8.256I0.217J1.573
G1X28.146Y8.412
X27.828Y8.666
X27.791Y8.703
X27.753Y8.741
X27.716Y8.778
X27.678Y8.816
X27.640Y8.854
X27.603Y8.891
X27.565Y8.929
X27.528Y8.966
X27.490Y9.004
X27.453Y9.041
X27.415Y9.079
X27.377Y9.117
X27.340Y9.154
X27.302Y9.192
X27.265Y9.229
X27.227Y9.267
X27.190Y9.304
X27.152Y9.342
X27.114Y9.380
X27.077Y9.417
X26.872Y9.659
X26.851Y9.680
X26.647Y9.922
X26.459Y10.148
X26.438Y10.169
X26.184Y10.486
X26.142Y10.547
X25.997Y10.749
X25.921Y10.862
X25.895Y10.899
X25.875Y10.920
X25.837Y10.958
X25.816Y10.978
X25.689Y11.075
X25.629Y11.117
X25.516Y11.192
X25.198Y11.446
X25.161Y11.484
X25.123Y11.521
X25.085Y11.559
X25.048Y11.596
X25.010Y11.634
X24.973Y11.672
X24.765Y11.918
X24.602Y12.125
X24.456Y12.327
X24.300Y12.591
X24.262Y12.667
X24.225Y12.742
X24.117Y12.995
X24.042Y13.182
X23.967Y13.370
X23.843Y13.743
X23.805Y13.894
X23.768Y14.044
X23.730Y14.194
X23.693Y14.344
X23.655Y14.495
X23.651Y14.509
X23.580Y14.758
X23.527Y15.001
X23.505Y15.096
X23.452Y15.339
X23.414Y15.527
X23.362Y15.931
Y16.377
X23.324Y16.720
Y16.866
X23.286Y17.209
Y17.290
X23.275Y17.327
X23.237Y17.440
X23.200Y17.553
X23.162Y17.665
X23.091Y17.914
X23.087Y17.928
X23.050Y18.041
X22.955Y18.452
X22.920Y18.651
X22.866Y18.853
X22.862Y18.868
G2X22.760Y19.426I1.486J0.558
G1Y19.984
X22.723Y20.328
Y20.591
X22.760Y20.934
Y21.417
X22.801Y21.772
X22.836Y22.024
Y22.319
X22.864Y22.620
X22.838Y22.828
X22.833Y22.853
X22.764Y23.027
X22.689Y23.215
X22.599Y23.452
X22.561Y23.564
X22.524Y23.677
X22.486Y23.790
X22.415Y24.039
X22.378Y24.189
X22.340Y24.339
X22.279Y24.651
X22.237Y24.932
X22.197Y25.242
X22.162Y25.496
X22.152Y25.541
X22.099Y25.784
X22.061Y25.972
X22.018Y26.204
X21.998Y26.270
X21.960Y26.383
X21.938Y26.446
X21.847Y26.683
X21.825Y26.747
X21.735Y26.984
X21.664Y27.232
X21.659Y27.247
X21.622Y27.359
X21.584Y27.472
X21.547Y27.585
X21.517Y27.672
X21.444Y27.809
X21.407Y27.884
X21.393Y27.910
X21.256Y28.147
X21.219Y28.222
X21.181Y28.297
X21.144Y28.373
X21.106Y28.448
X21.069Y28.523
X20.961Y28.776
X20.956Y28.786
X20.918Y28.861
X20.881Y28.936
X20.773Y29.189
X20.768Y29.199
X20.660Y29.452
X20.570Y29.689
X20.499Y29.938
X20.461Y30.088
X20.408Y30.331
X20.371Y30.519
X20.349Y30.614
X20.295Y30.857
X20.258Y31.045
X20.220Y31.233
X20.198Y31.328
X20.137Y31.640
X20.100Y31.865
X20.058Y32.146
X20.020Y32.409
X19.987Y32.617
X19.943Y32.944
X19.907Y33.198
X19.877Y33.380
X19.856Y33.446
X19.818Y33.559
X19.781Y33.672
X19.758Y33.735
X19.683Y33.923
X19.593Y34.160
X19.570Y34.224
X19.480Y34.461
X19.443Y34.574
X19.420Y34.637
X19.330Y34.874
X19.259Y35.123
X19.198Y35.435
X19.168Y35.591
X19.131Y35.779
X19.093Y35.967
X19.071Y36.062
X19.033Y36.212
X19.029Y36.227
X18.958Y36.475
X18.921Y36.626
X18.916Y36.640
X18.822Y37.051
X18.778Y37.424
Y37.606
X18.740Y37.944
X18.702Y38.288
Y38.621
X18.672Y38.817
X18.630Y39.097
X18.597Y39.305
X18.555Y39.586
X18.515Y39.936
X18.477Y40.279
Y40.349
X18.439Y40.693
Y40.875
X18.402Y41.219
Y41.369
X18.438Y41.707
X18.402Y42.045
Y42.491
X18.364Y42.834
Y42.942
X18.327Y43.285
Y43.318
X18.304Y43.444
X18.258Y43.701
X18.244Y43.765
X18.194Y43.992
X18.165Y44.080
X18.127Y44.193
X18.090Y44.305
X18.052Y44.418
X18.015Y44.531
X17.977Y44.643
X17.891Y44.985
X17.845Y45.242
X17.816Y45.398
X17.770Y45.655
X17.726Y46.028
Y46.404
G2X17.827Y46.962I1.588J0.000
G1X17.831Y46.976
X17.869Y47.127
X17.906Y47.277
X17.928Y47.372
X17.954Y47.511
X17.991Y47.774
X18.029Y48.037
X18.064Y48.288
Y48.320
X18.101Y48.663
Y48.733
X18.139Y49.077
Y49.259
X18.176Y49.603
Y49.973
X18.214Y50.317
Y50.687
G2X18.282Y51.147I1.588J0.000
G1X18.320Y51.297
X18.390Y51.546
X18.395Y51.560
X18.432Y51.711
X18.503Y51.959
X18.507Y51.974
G2X18.664Y52.411I1.557J-0.309
G1X18.701Y52.487
X18.739Y52.562
X18.777Y52.637
X18.814Y52.712
X18.852Y52.787
X18.889Y52.862
X18.927Y52.938
X18.964Y53.013
X19.101Y53.249
X19.115Y53.276
X19.120Y53.286
X19.227Y53.539
X19.232Y53.549
X19.307Y53.737
X19.376Y53.910
X19.394Y53.985
X19.447Y54.228
X19.484Y54.378
X19.494Y54.425
X19.491Y54.520
Y54.778
X19.457Y55.029
X19.419Y55.292
X19.379Y55.642
X19.341Y55.985
Y56.023
G2X19.409Y56.482I1.588J0.000
G0Z5.080
G0X42.617Y0.001
G1Z-4.000F300.0
G1X0.040F1000.0
X0.004Y0.004
X0.000Y0.058
Y2.224
X35.140
X35.043Y2.291
X34.892Y2.428
X34.855Y2.466
X34.817Y2.504
X34.780Y2.541
X34.742Y2.579
X34.623Y2.707
X34.519Y2.848
X34.431Y2.999
X34.318Y3.187
X34.263Y3.272
X34.188Y3.385
X34.113Y3.498
X34.071Y3.558
X33.971Y3.689
X33.885Y3.789
X33.883Y3.790
X33.698Y3.865
X33.634Y3.887
X33.620Y3.891
X33.470Y3.929
X33.221Y4.000
X32.984Y4.090
X32.731Y4.198
X32.656Y4.235
X32.581Y4.273
X32.382Y4.384
X32.051Y4.349
X31.900
X31.711Y4.361
X31.524Y4.395
X31.356Y4.446
X0.000
Y6.669
X27.944
X27.774Y6.805
X27.528Y7.012
X27.507Y7.033
X27.265Y7.238
X27.227Y7.275
X27.190Y7.313
X27.152Y7.351
X27.114Y7.388
X27.077Y7.426
X27.056Y7.446
X26.872Y7.594
X26.684Y7.744
X26.553Y7.844
X26.346Y8.007
X26.100Y8.215
X26.062Y8.252
X26.025Y8.290
X25.987Y8.327
X25.950Y8.365
X25.912Y8.403
X25.875Y8.440
X25.837Y8.478
X25.799Y8.515
X25.762Y8.553
X25.724Y8.590
X25.687Y8.628
X25.649Y8.666
X25.611Y8.703
X25.574Y8.741
X25.553Y8.762
X25.400Y8.891
X0.000
Y11.114
X23.680
X23.586Y11.276
X23.548Y11.352
X23.511Y11.427
X23.473Y11.502
X23.436Y11.577
X23.398Y11.652
X23.327Y11.804
X23.248Y11.953
X23.210Y12.028
X23.173Y12.103
X23.135Y12.178
X23.121Y12.205
X23.115Y12.214
X23.094Y12.235
X23.056Y12.273
X22.852Y12.515
X22.729Y12.653
X22.622Y12.805
X22.534Y12.967
X22.496Y13.042
X22.483Y13.069
X22.346Y13.305
X22.331Y13.336
X0.000
Y15.559
X22.121
X22.122Y15.561
Y15.668
X22.159Y16.012
Y16.157
X22.197Y16.500
Y16.758
X22.200Y16.852
X22.197Y16.946
Y16.978
X22.159Y17.322
Y17.354
X22.129Y17.550
X22.091Y17.775
X22.090Y17.781
X0.000
Y20.004
X21.563
X21.554Y20.013
X21.516Y20.051
X21.478Y20.088
X21.441Y20.126
X21.403Y20.163
X21.366Y20.201
X21.328Y20.238
X21.290Y20.276
X21.269Y20.297
X21.229Y20.325
X21.010Y20.362
X20.795Y20.430
X20.591Y20.528
X20.404Y20.654
X20.238Y20.802
X20.201Y20.840
X19.993Y21.086
X19.838Y21.280
X19.716Y21.497
X19.702Y21.523
X19.566Y21.760
X19.528Y21.835
X19.491Y21.910
X19.453Y21.985
X19.415Y22.060
X19.344Y22.226
X0.000
Y24.449
X18.579
X18.564Y24.533
X18.552Y24.718
X18.515Y25.062
Y25.658
X18.478Y25.955
X18.439Y26.302
Y26.383
X18.428Y26.420
X18.390Y26.533
X18.353Y26.646
X18.344Y26.671
X0.000
Y28.894
X18.026
Y29.039
X17.989Y29.383
Y29.603
X17.958Y29.799
X17.914Y30.126
X17.878Y30.380
X17.841Y30.643
X17.816Y30.782
X17.770Y31.039
X17.757Y31.116
X0.000
Y33.339
X17.054
X17.015Y33.435
X16.925Y33.672
X16.903Y33.735
X16.828Y33.923
X16.823Y33.933
X16.785Y34.009
X16.771Y34.035
X16.659Y34.223
X16.522Y34.460
X16.508Y34.486
X16.372Y34.723
X16.286Y34.914
X16.225Y35.115
X16.192Y35.322
X16.159Y35.507
X16.155Y35.561
X0.000
Y37.784
X16.157
X16.147Y37.869
X16.113Y38.121
X16.073Y38.430
X16.037Y38.684
X16.007Y38.861
X15.997Y39.039
Y39.190
X16.007Y39.368
X16.037Y39.545
X16.075Y39.808
X16.103Y40.006
X0.000
Y42.229
X14.608
X14.581Y42.382
X14.569Y42.571
Y42.716
X14.532Y43.060
Y43.242
X14.509Y43.369
X14.463Y43.626
X14.426Y43.852
X14.396Y44.008
X14.351Y44.265
X14.321Y44.421
X14.316Y44.451
X0.000
Y46.674
X13.975
X13.961Y46.733
X13.923Y46.883
X13.886Y47.034
X13.848Y47.184
X13.811Y47.334
X13.773Y47.485
X13.722Y47.712
X13.705Y47.944
Y48.283
X13.743Y48.626
Y48.896
X0.000
Y51.119
X14.397
X14.418Y51.172
X14.423Y51.182
X14.531Y51.435
X14.568Y51.510
X14.724Y51.774
X14.780Y51.859
X14.893Y52.047
X14.906Y52.073
X14.942Y52.145
X14.960Y52.219
X14.985Y52.358
X15.023Y52.621
X15.045Y52.806
X15.088Y52.988
X15.110Y53.083
X15.163Y53.326
X15.167Y53.341
X0.000
Y55.564
X15.847
Y55.642
X15.840Y55.676
X15.802Y55.826
X15.765Y55.976
X15.727Y56.127
X15.689Y56.277
X15.669Y56.349
X15.610Y56.517
X15.572Y56.630
X15.550Y56.693
X15.460Y56.930
X15.389Y57.179
X15.338Y57.406
X15.321Y57.638
Y57.786
X0.000
Y60.009
X13.362
X13.318Y60.124
X13.280Y60.237
X13.243Y60.349
X13.172Y60.598
X13.121Y60.825
X13.104Y61.058
Y61.133
X13.118Y61.341
X13.160Y61.550
X13.230Y61.753
X13.327Y61.944
X13.448Y62.119
X13.549Y62.231
X0.000
Y64.454
G0Z5.080
G0X16.760Y60.009
G1Z-4.000F300.0
G1X17.297F1000.0
X17.308Y60.020
X17.328Y60.041
X17.335Y60.050
X17.349Y60.077
X17.473Y60.296
X17.511Y60.394
X17.564Y60.564
X17.601Y60.676
X17.606Y60.691
X17.660Y60.893
X17.695Y61.093
X17.740Y61.350
X17.770Y61.506
X17.816Y61.763
X17.869Y62.006
X17.891Y62.101
X17.917Y62.231
X15.974
G0Z5.080
G0X0.000Y64.454
G1Z-4.000F300.0
G1X18.591F1000.0
X18.670Y64.586
X18.804Y64.775
X18.967Y64.945
X19.152Y65.088
X19.355Y65.201
X19.538Y65.284
X19.731Y65.344
X19.929Y65.379
X19.995Y65.400
X20.176Y65.455
X20.364Y65.489
X20.553Y65.501
X20.591
X20.784Y65.489
X20.976Y65.453
X21.162Y65.395
X21.338Y65.314
X21.413Y65.276
X21.677Y65.120
X21.790Y65.045
X21.902Y64.970
X22.072Y64.851
X22.295Y64.940
X22.531Y64.994
X22.770Y65.012
X22.995
X23.199Y64.999
X23.400Y64.960
X23.741Y64.873
X23.968Y64.788
X24.179Y64.669
X24.390Y64.788
X24.617Y64.873
X24.680Y64.896
X24.917Y64.986
X25.098Y65.042
X25.286Y65.076
X25.475Y65.088
X25.663
X25.852Y65.076
X26.040Y65.042
X26.221Y64.986
X26.334Y64.949
X26.493Y64.893
X26.649Y64.922
X26.906Y64.968
X26.969Y64.982
X26.984Y64.986
X27.165Y65.042
X27.352Y65.076
X27.542Y65.088
X27.842
X27.861Y65.087
X27.880Y65.088
X27.912
X28.256Y65.125
X28.331
X28.524Y65.113
X28.716Y65.078
X28.902Y65.019
X29.078Y64.938
X29.153Y64.901
X29.228Y64.863
X29.303Y64.825
X29.379Y64.788
X29.615Y64.651
X29.642Y64.638
X29.878Y64.501
X29.905Y64.487
X29.972Y64.454
G0Z5.080
G0X38.058Y2.224
G1Z-4.000F300.0
G1X39.287F1000.0
G0Z5.080
G0X45.602Y0.001
G1Z-4.000F300.0
G1X63.460F1000.0
X63.496Y0.004
X63.500Y0.058
Y2.224
X46.394
X46.406Y2.295
X46.440Y2.480
X46.451Y2.668
Y2.705
X46.422Y3.006
X46.451Y3.307
Y4.446
X63.500
Y6.669
X50.682
X50.694Y6.709
X50.727Y6.916
X50.769Y7.197
X50.795Y7.336
X50.817Y7.431
X50.854Y7.581
X50.907Y7.824
X50.929Y7.919
X50.967Y8.070
X51.004Y8.220
X51.009Y8.236
X51.111Y8.421
X51.149Y8.496
X51.165Y8.528
X51.190Y8.553
X51.227Y8.590
X51.386Y8.769
X51.465Y8.891
X63.500
Y11.114
X51.889
X51.869Y11.206
X51.831Y11.356
X51.793Y11.506
X51.756Y11.657
X51.718Y11.807
X51.681Y11.957
X51.610Y12.206
X51.572Y12.319
X51.489Y12.541
X51.455Y12.671
X51.418Y12.822
X51.380Y12.972
X51.309Y13.220
X51.305Y13.235
X51.276Y13.336
X63.500
Y15.559
X50.835
X50.847Y15.668
Y15.889
X50.885Y16.232
Y17.134
X50.847Y17.477
Y17.542
X50.873Y17.781
X63.500
Y20.004
X51.215
X51.222Y20.056
X51.260Y20.403
Y20.478
X51.247Y20.682
X51.208Y20.883
X51.170Y21.070
X51.133Y21.258
X51.095Y21.446
X51.072Y21.573
Y21.868
X51.035Y22.211
Y22.226
X63.500
Y24.449
X50.659
Y24.912
X50.622Y25.255
X50.583Y25.596
X50.546Y25.894
Y26.039
X50.509Y26.382
Y26.452
X50.491Y26.671
X63.500
Y28.894
X50.497
X50.471Y29.125
X50.433Y29.466
X50.413Y29.675
X50.366Y29.880
X50.295Y30.129
X50.290Y30.143
X50.253Y30.293
X50.215Y30.444
X50.144Y30.692
X50.107Y30.805
X50.103Y30.819
X50.032Y31.068
X50.016Y31.116
X63.500
Y33.339
X50.203
X50.234Y33.514
X50.246Y33.704
Y34.718
X50.234Y34.908
X50.200Y35.095
X50.144Y35.276
X50.107Y35.389
X50.041Y35.561
X63.500
Y37.784
X49.204
X49.194Y37.880
Y38.288
X49.156Y38.631
Y38.889
X49.119Y39.232
Y40.006
X63.500
Y42.229
X49.231
X49.259Y42.393
X49.269Y42.571
Y42.722
X49.252Y42.954
X49.201Y43.181
X49.130Y43.430
X49.092Y43.543
X49.088Y43.557
X49.017Y43.806
X48.980Y43.918
X48.975Y43.933
X48.913Y44.157
X48.819Y44.371
X48.781Y44.446
X48.779Y44.451
X63.500
Y46.674
X48.254
X48.191Y46.924
X48.162Y47.012
X48.127Y47.184
X48.089Y47.372
X48.051Y47.563
X47.989Y47.750
X47.904Y47.927
X47.799Y48.091
X47.682Y48.258
X47.545Y48.409
X47.280Y48.630
X47.110Y48.755
X46.926Y48.857
X46.851Y48.894
X46.846Y48.896
X63.500
Y51.119
X46.047
X46.028Y51.223
X45.969Y51.409
X45.888Y51.585
X45.851Y51.660
X45.759Y51.829
X45.646Y51.987
X45.516Y52.129
X45.478Y52.167
X45.348Y52.287
X45.206Y52.392
X45.052Y52.480
X44.883Y52.629
X44.693Y52.752
X44.489Y52.847
X44.385Y53.088
X44.380Y53.098
X44.277Y53.341
X63.500
Y55.564
X42.935
X42.733Y55.731
X42.606Y55.828
X42.482Y55.940
X42.347Y56.039
X42.203Y56.122
X42.117Y56.178
X41.853Y56.334
X41.778Y56.371
X41.703Y56.409
X41.677Y56.423
X41.531Y56.513
X41.375Y56.588
X41.213Y56.645
X41.032Y56.701
X40.844Y56.735
X40.655Y56.746
X40.609
X40.502Y56.816
X40.461Y56.845
X40.406Y56.901
X40.368Y56.938
X40.331Y56.976
X40.293Y57.014
X40.272Y57.035
X40.068Y57.277
X40.047Y57.298
X39.859Y57.523
X39.654Y57.765
X39.633Y57.786
X63.500
Y60.009
X38.134
X38.083Y60.188
X37.993Y60.425
X37.918Y60.613
X37.843Y60.801
X37.735Y61.053
X37.697Y61.129
X37.660Y61.204
X37.503Y61.468
X37.307Y61.727
X37.116Y61.957
X36.912Y62.199
X36.876Y62.231
X63.500
Y64.454
X29.972
G0Z5.080
G0X63.500Y66.676
G1Z-4.000F300.0
G1X0.000F1000.0
Y68.899
X63.500
Y71.121
X0.000
Y73.344
X63.500
Y75.566
X0.000
Y77.789
X63.500
Y80.011
X0.000
Y82.234
X63.500
Y84.456
X0.000
Y86.678
X63.500
Y88.842
X63.496Y88.896
X63.460Y88.899
X0.040
G0Z5.080
G0X42.618Y0.000
G1Z-4.000F300.0
G1X42.595Y0.024F1000.0
X42.557Y0.061
X42.304Y0.379
X42.229Y0.492
X42.153Y0.604
X42.078Y0.717
G2X41.852Y1.159I1.282J0.936
G1X41.761Y1.396
X41.756Y1.412
X41.739Y1.407
G2X41.181Y1.306I-0.558J1.486
G1X41.068
G2X40.321Y1.493I0.000J1.588
G1X40.246Y1.530
X40.009Y1.667
X39.983Y1.680
X39.908Y1.718
G2X39.439Y2.053I0.672J1.438
G1X39.185Y2.370
X39.053Y2.586
X39.030Y2.619
X38.900Y2.796
X38.861Y2.777
X38.698Y2.663
X38.638Y2.621
X38.435Y2.475
X38.322Y2.400
X38.210Y2.325
X38.097Y2.250
X37.984Y2.175
X37.720Y2.019
X37.645Y1.981
X37.570Y1.943
X37.495Y1.906
X37.419Y1.868
X37.344Y1.831
G2X36.597Y1.644I-0.747J1.401
G1X36.484
G2X35.548Y1.949I0.000J1.588
G1X35.435Y2.024
X35.323Y2.100
X35.210Y2.175
X34.892Y2.428
X34.855Y2.466
X34.817Y2.504
X34.780Y2.541
X34.742Y2.579
G2X34.431Y2.999I1.104J1.141
G1X34.318Y3.187
X34.263Y3.272
X34.188Y3.385
X34.113Y3.498
X34.071Y3.558
X33.971Y3.689
X33.885Y3.789
X33.883Y3.790
X33.698Y3.865
X33.634Y3.887
X33.620Y3.891
X33.470Y3.929
X33.221Y4.000
X32.984Y4.090
X32.731Y4.198
X32.656Y4.235
X32.581Y4.273
X32.382Y4.384
X32.051Y4.349
X31.900
G2X31.342Y4.450I0.000J1.588
G1X31.230Y4.488
X31.117Y4.526
X31.004Y4.563
X30.702Y4.686
X30.438Y4.842
G2X29.953Y5.300I0.823J1.357
G1X29.765Y5.526
X29.745Y5.547
X29.524Y5.812
X29.355Y6.055
X29.354Y6.055
X29.013Y6.141
X28.845Y6.201
X28.675Y6.254
X28.373Y6.377
G2X27.962Y6.654I0.672J1.438
G1X27.774Y6.805
X27.528Y7.012
X27.507Y7.033
X27.265Y7.238
X27.227Y7.275
X27.190Y7.313
X27.152Y7.351
X27.114Y7.388
X27.077Y7.426
X27.056Y7.446
X26.872Y7.594
X26.684Y7.744
X26.553Y7.844
X26.346Y8.007
X26.100Y8.215
X26.062Y8.252
X26.025Y8.290
X25.987Y8.327
X25.950Y8.365
X25.912Y8.403
X25.875Y8.440
X25.837Y8.478
X25.799Y8.515
X25.762Y8.553
X25.724Y8.590
X25.687Y8.628
X25.649Y8.666
X25.611Y8.703
X25.574Y8.741
X25.553Y8.762
X25.311Y8.966
X25.273Y9.004
X25.236Y9.041
X25.198Y9.079
X25.161Y9.117
X25.123Y9.154
X25.085Y9.192
X25.048Y9.229
X25.010Y9.267
X24.973Y9.304
X24.935Y9.342
X24.898Y9.380
X24.860Y9.417
X24.822Y9.455
X24.785Y9.492
X24.747Y9.530
X24.710Y9.567
X24.672Y9.605
X24.635Y9.643
X24.597Y9.680
X24.343Y9.998
X24.268Y10.111
X24.193Y10.223
X24.118Y10.336
X23.986Y10.551
X23.849Y10.788
X23.812Y10.863
X23.774Y10.938
X23.736Y11.013
X23.723Y11.040
X23.586Y11.276
X23.548Y11.352
X23.511Y11.427
X23.473Y11.502
X23.436Y11.577
X23.398Y11.652
X23.327Y11.804
X23.248Y11.953
X23.210Y12.028
X23.173Y12.103
X23.135Y12.178
X23.121Y12.205
X23.115Y12.214
X23.094Y12.235
X23.056Y12.273
X22.852Y12.515
G2X22.534Y12.967I1.120J1.125
G1X22.496Y13.042
X22.483Y13.069
X22.346Y13.305
X22.309Y13.381
G2X22.152Y13.818I1.401J0.747
G1X22.099Y14.061
X22.047Y14.466
Y14.917
X22.085Y15.263
X22.122Y15.561
Y15.668
X22.159Y16.012
Y16.157
X22.197Y16.500
Y16.758
X22.200Y16.852
X22.197Y16.946
Y16.978
X22.159Y17.322
Y17.354
X22.129Y17.550
X22.091Y17.775
X22.053Y18.001
X22.016Y18.226
X21.972Y18.553
X21.934Y18.900
Y19.045
X21.897Y19.342
X21.874Y19.472
X21.843Y19.612
X21.787Y19.758
X21.765Y19.806
X21.666Y19.900
X21.629Y19.938
X21.591Y19.975
X21.554Y20.013
X21.516Y20.051
X21.478Y20.088
X21.441Y20.126
X21.403Y20.163
X21.366Y20.201
X21.328Y20.238
X21.290Y20.276
X21.269Y20.297
X21.229Y20.325
G2X20.238Y20.802I0.150J1.580
G1X20.201Y20.840
X19.993Y21.086
G2X19.716Y21.497I1.161J1.083
G1X19.702Y21.523
X19.566Y21.760
X19.528Y21.835
X19.491Y21.910
X19.453Y21.985
X19.415Y22.060
X19.307Y22.313
X19.285Y22.361
X19.227Y22.473
X19.190Y22.549
X19.176Y22.575
X19.040Y22.812
X19.002Y22.887
X18.964Y22.962
X18.927Y23.037
X18.889Y23.112
X18.766Y23.414
G2X18.666Y23.926I1.486J0.558
G1X18.634Y24.125
X18.597Y24.351
X18.552Y24.718
X18.515Y25.062
Y25.658
X18.478Y25.955
X18.439Y26.302
Y26.383
X18.428Y26.420
X18.390Y26.533
X18.353Y26.646
X18.315Y26.758
X18.278Y26.871
X18.191Y27.212
X18.142Y27.525
X18.108Y27.732
X18.079Y27.888
X18.026Y28.293
Y29.039
X17.989Y29.383
Y29.603
X17.958Y29.799
X17.914Y30.126
X17.878Y30.380
X17.841Y30.643
X17.816Y30.782
X17.770Y31.039
X17.732Y31.264
X17.695Y31.490
X17.681Y31.553
X17.643Y31.704
X17.606Y31.854
X17.601Y31.868
X17.531Y32.117
X17.497Y32.247
X17.429Y32.420
X17.424Y32.431
X17.316Y32.683
X17.241Y32.871
X17.236Y32.881
X17.113Y33.183
X17.091Y33.247
X17.015Y33.435
X16.925Y33.672
X16.903Y33.735
X16.828Y33.923
X16.823Y33.933
X16.785Y34.009
X16.771Y34.035
X16.659Y34.223
X16.522Y34.460
X16.508Y34.486
X16.372Y34.723
G2X16.192Y35.322I1.401J0.747
G1X16.147Y35.695
Y35.728
X16.110Y36.071
Y36.710
X16.154Y37.083
X16.192Y37.308
X16.198Y37.367
X16.186Y37.528
X16.147Y37.869
X16.113Y38.121
X16.073Y38.430
X16.037Y38.684
X15.997Y39.039
Y39.190
X16.037Y39.545
X16.075Y39.808
X16.113Y40.071
X16.148Y40.325
X16.148Y40.331
G2X15.279Y40.791I0.272J1.564
G1X15.241Y40.829
G2X14.821Y41.525I1.104J1.141
G1X14.783Y41.638
X14.746Y41.750
X14.675Y41.999
X14.671Y42.013
G2X14.569Y42.571I1.486J0.558
G1Y42.716
X14.532Y43.060
Y43.242
X14.509Y43.369
X14.463Y43.626
X14.426Y43.852
X14.396Y44.008
X14.351Y44.265
X14.321Y44.421
X14.276Y44.678
X14.234Y44.959
X14.194Y45.314
Y45.347
X14.156Y45.685
X14.119Y45.982
X14.096Y46.112
X14.058Y46.300
X14.036Y46.395
X13.983Y46.638
X13.961Y46.733
X13.923Y46.883
X13.886Y47.034
X13.848Y47.184
X13.811Y47.334
X13.773Y47.485
G2X13.705Y47.944I1.519J0.460
G1Y48.283
X13.743Y48.626
Y48.959
G2X13.844Y49.517I1.588J0.000
G1X13.934Y49.754
X13.957Y49.817
X13.994Y49.930
X14.085Y50.167
X14.107Y50.231
X14.145Y50.344
X14.182Y50.456
X14.186Y50.471
X14.224Y50.621
X14.295Y50.870
X14.418Y51.172
X14.423Y51.182
X14.531Y51.435
X14.568Y51.510
X14.724Y51.774
X14.780Y51.859
X14.893Y52.047
X14.906Y52.073
X14.942Y52.145
X14.960Y52.219
X14.985Y52.358
X15.023Y52.621
X15.088Y52.988
X15.110Y53.083
X15.163Y53.326
X15.185Y53.422
X15.272Y53.763
X15.309Y53.875
G2X15.551Y54.366I1.524J-0.445
G1X15.607Y54.452
X15.739Y54.667
X15.753Y54.690
X15.772Y54.788
X15.809Y55.126
Y55.196
X15.847Y55.539
Y55.642
X15.840Y55.676
X15.802Y55.826
X15.765Y55.976
X15.727Y56.127
X15.689Y56.277
X15.669Y56.349
X15.610Y56.517
X15.572Y56.630
X15.550Y56.693
X15.460Y56.930
X15.389Y57.179
G2X15.321Y57.638I1.519J0.460
G1Y57.826
G2X15.508Y58.574I1.588J0.000
G1X15.614Y58.765
G2X15.105Y58.681I-0.509J1.504
G1X15.067
G2X14.320Y58.868I0.000J1.587
G2X13.851Y59.203I0.672J1.438
G1X13.813Y59.240
G2X13.408Y59.887I1.104J1.141
G1X13.318Y60.124
X13.280Y60.237
X13.243Y60.349
X13.172Y60.598
G2X13.104Y61.058I1.519J0.460
G1Y61.133
G2X13.588Y62.274I1.588J0.000
G2X14.729Y62.758I1.141J-1.104
G1X14.767
G2X15.793Y62.382I0.000J-1.588
G1X16.058Y62.161
X16.096Y62.124
X16.133Y62.086
X16.171Y62.049
X16.208Y62.011
G2X16.543Y61.542I-1.104J-1.141
G1X16.581Y61.467
X16.704Y61.165
G2X16.805Y60.607I-1.486J-0.558
G1Y60.381
G2X16.618Y59.634I-1.588J0.000
G1X16.600Y59.597
X16.612Y59.603
X16.638Y59.616
X16.724Y59.672
X16.836Y59.747
X17.100Y59.903
X17.176Y59.941
X17.251Y59.978
X17.277Y59.992
X17.287Y59.999
X17.308Y60.020
X17.328Y60.041
X17.335Y60.050
X17.349Y60.077
X17.473Y60.296
X17.511Y60.394
X17.564Y60.564
X17.601Y60.676
X17.606Y60.691
X17.660Y60.893
X17.695Y61.093
X17.740Y61.350
X17.770Y61.506
X17.816Y61.763
X17.869Y62.006
X17.891Y62.101
X17.928Y62.289
X17.966Y62.477
X18.019Y62.720
X18.057Y62.870
X18.094Y63.020
X18.132Y63.171
X18.169Y63.321
X18.207Y63.471
X18.278Y63.720
X18.315Y63.833
X18.353Y63.945
X18.476Y64.247
X18.514Y64.322
X18.670Y64.586
G2X19.355Y65.201I1.357J-0.823
G2X19.929Y65.379I0.747J-1.401
G1X19.995Y65.400
G2X20.553Y65.501I0.558J-1.486
G1X20.591
G2X21.338Y65.314I0.000J-1.587
G1X21.413Y65.276
X21.677Y65.120
X21.790Y65.045
X21.902Y64.970
X22.072Y64.851
G2X22.770Y65.012I0.697J-1.426
G1X22.995
X23.400Y64.960
X23.741Y64.873
G2X24.179Y64.669I-0.445J-1.524
G2X24.617Y64.873I0.883J-1.319
G1X24.680Y64.896
X24.917Y64.986
G2X25.475Y65.088I0.558J-1.486
G1X25.663
G2X26.221Y64.986I0.000J-1.588
G1X26.334Y64.949
X26.493Y64.893
X26.649Y64.922
X26.906Y64.968
X26.969Y64.982
X26.984Y64.986
G2X27.542Y65.088I0.558J-1.486
G1X27.842
X27.861Y65.087
X27.880Y65.088
X27.912
X28.256Y65.125
X28.331
G2X29.078Y64.938I0.000J-1.587
G1X29.153Y64.901
X29.228Y64.863
X29.303Y64.825
X29.379Y64.788
X29.615Y64.651
X29.642Y64.638
X29.878Y64.501
X29.905Y64.487
X29.980Y64.450
X30.334Y64.223
X30.484Y64.110
X30.749Y63.890
X30.787Y63.852
X30.825Y63.815
X30.846Y63.794
X31.088Y63.589
X31.125Y63.552
X31.163Y63.514
X31.200Y63.476
X31.238Y63.439
X31.275Y63.401
X31.313Y63.364
X31.351Y63.326
X31.388Y63.288
X31.426Y63.251
X31.463Y63.213
X31.501Y63.176
X31.538Y63.138
X31.576Y63.101
X31.614Y63.063
X31.635Y63.042
X31.682Y63.009
G2X32.130Y63.323I1.121J-1.125
G1X32.205Y63.360
X32.280Y63.398
X32.355Y63.435
X32.431Y63.473
X32.733Y63.596
G2X33.291Y63.697I0.558J-1.486
G1X33.403
G2X34.544Y63.213I0.000J-1.588
G1X34.582Y63.176
X34.620Y63.138
X34.657Y63.101
X34.695Y63.063
X34.732Y63.025
X34.770Y62.988
X34.807Y62.950
X34.835Y62.923
X34.911Y62.908
X35.282
G2X36.029Y62.721I0.000J-1.587
G1X36.111Y62.680
X36.367Y62.571
X36.443Y62.533
G2X36.912Y62.199I-0.672J-1.438
G1X37.116Y61.957
X37.307Y61.727
X37.503Y61.468
X37.660Y61.204
X37.697Y61.129
X37.735Y61.053
X37.843Y60.801
X37.918Y60.613
X37.993Y60.425
X38.083Y60.188
X38.154Y59.939
X38.158Y59.925
X38.229Y59.676
X38.267Y59.526
X38.271Y59.512
X38.338Y59.284
X38.444Y59.035
X38.449Y59.024
X38.548Y58.797
X38.565Y58.780
X38.602Y58.742
X38.640Y58.704
X38.678Y58.667
X38.715Y58.629
X38.753Y58.592
X38.790Y58.554
X38.828Y58.517
X38.865Y58.479
X38.903Y58.441
X38.941Y58.404
X38.978Y58.366
X39.016Y58.329
X39.053Y58.291
X39.074Y58.270
X39.316Y58.066
X39.337Y58.045
X39.579Y57.840
X39.617Y57.803
X39.654Y57.765
X39.859Y57.523
X40.047Y57.298
X40.068Y57.277
X40.272Y57.035
X40.293Y57.014
X40.331Y56.976
X40.368Y56.938
X40.406Y56.901
X40.461Y56.845
X40.502Y56.816
X40.609Y56.746
X40.655
G2X41.213Y56.645I0.000J-1.587
G2X41.677Y56.423I-0.445J-1.524
G1X41.703Y56.409
X41.778Y56.371
X41.853Y56.334
X42.117Y56.178
X42.203Y56.122
G2X42.606Y55.828I-0.721J-1.414
G1X42.733Y55.731
X42.999Y55.511
X43.036Y55.473
X43.074Y55.436
X43.111Y55.398
X43.149Y55.360
X43.186Y55.323
X43.224Y55.285
X43.262Y55.248
G2X43.596Y54.779I-1.104J-1.141
G1X43.610Y54.752
X43.746Y54.516
X43.784Y54.440
X43.822Y54.365
X43.859Y54.290
X43.897Y54.215
X43.934Y54.140
X44.042Y53.887
X44.117Y53.699
X44.122Y53.689
X44.230Y53.436
X44.235Y53.426
X44.273Y53.351
X44.380Y53.098
X44.385Y53.088
X44.489Y52.847
G2X45.052Y52.480I-0.565J-1.483
G2X45.478Y52.167I-0.715J-1.417
G1X45.516Y52.129
G2X45.851Y51.660I-1.104J-1.141
G1X45.888Y51.585
G2X46.075Y50.838I-1.401J-0.747
G1Y50.236
X46.037Y49.893
X46.037Y49.879
X46.038Y49.861
Y49.372
X46.036Y49.310
X46.066Y49.263
X46.147Y49.227
X46.400Y49.120
X46.475Y49.082
X46.550Y49.044
X46.625Y49.007
X46.700Y48.969
X46.775Y48.932
X46.851Y48.894
X46.926Y48.857
X47.280Y48.630
X47.545Y48.409
X47.799Y48.091
G2X48.089Y47.372I-1.282J-0.936
G1X48.127Y47.184
X48.162Y47.012
X48.191Y46.924
X48.277Y46.583
X48.330Y46.184
X48.367Y45.845
X48.390Y45.719
X48.412Y45.624
X48.449Y45.473
X48.454Y45.459
X48.525Y45.210
X48.529Y45.196
X48.600Y44.947
X48.604Y44.933
X48.642Y44.820
X48.679Y44.707
X48.717Y44.595
X48.739Y44.531
X48.744Y44.521
X48.781Y44.446
X48.819Y44.371
G2X48.975Y43.933I-1.401J-0.747
G1X48.980Y43.918
X49.017Y43.806
X49.088Y43.557
X49.092Y43.543
X49.130Y43.430
X49.201Y43.181
G2X49.269Y42.722I-1.519J-0.460
G1Y42.571
X49.229Y42.216
X49.193Y41.962
X49.156Y41.664
Y41.482
X49.119Y41.138
Y40.918
X49.115Y40.805
X49.119Y40.693
Y39.232
X49.156Y38.889
Y38.631
X49.194Y38.288
Y37.880
X49.231Y37.536
Y37.429
X49.262Y37.233
X49.294Y37.057
X49.383Y36.893
X49.396Y36.867
X49.509Y36.679
X49.646Y36.443
X49.683Y36.367
X49.721Y36.292
X49.758Y36.217
X49.866Y35.964
X49.871Y35.954
X49.909Y35.879
X50.017Y35.626
X50.107Y35.389
X50.144Y35.276
G2X50.246Y34.718I-1.486J-0.558
G1Y33.704
G2X50.144Y33.146I-1.588J0.000
G1X50.107Y33.033
X50.103Y33.019
X50.032Y32.770
X49.994Y32.657
X49.990Y32.643
X49.952Y32.493
X49.938Y32.429
X49.901Y32.204
X49.867Y31.996
X49.867Y31.994
X49.870Y31.900
Y31.793
X49.908Y31.455
X49.915Y31.421
X49.919Y31.406
X49.957Y31.294
X49.994Y31.181
X50.032Y31.068
X50.103Y30.819
X50.107Y30.805
X50.144Y30.692
X50.215Y30.444
X50.253Y30.293
X50.290Y30.143
X50.295Y30.129
X50.366Y29.880
X50.433Y29.466
X50.471Y29.125
X50.509Y28.782
Y28.035
X50.546Y27.692
Y27.504
X50.509Y27.161
Y26.978
X50.487Y26.715
X50.509Y26.452
Y26.382
X50.546Y26.039
Y25.894
X50.583Y25.596
X50.622Y25.255
X50.659Y24.912
Y24.342
X50.671Y24.305
X50.693Y24.241
X50.783Y24.004
X50.821Y23.891
X50.858Y23.779
X50.953Y23.368
X50.997Y22.995
Y22.925
X51.035Y22.582
Y22.211
X51.072Y21.868
Y21.573
X51.095Y21.446
X51.133Y21.258
X51.170Y21.070
X51.208Y20.883
X51.260Y20.478
Y20.403
X51.222Y20.056
X51.184Y19.756
X51.148Y19.458
G2X51.080Y19.004I-1.587J0.005
G1X51.058Y18.908
X51.004Y18.665
X50.967Y18.515
X50.922Y18.341
X50.885Y18.030
Y17.885
X50.847Y17.542
Y17.477
X50.885Y17.134
Y16.232
X50.847Y15.889
Y15.668
X50.809Y15.325
Y15.255
X50.804Y15.124
X50.809Y15.038
X50.846Y14.737
X50.867Y14.624
X50.896Y14.536
X50.934Y14.423
X50.971Y14.310
X51.009Y14.197
X51.031Y14.134
X51.121Y13.897
X51.192Y13.648
X51.230Y13.498
X51.234Y13.483
X51.305Y13.235
X51.309Y13.220
X51.380Y12.972
X51.418Y12.822
X51.455Y12.671
X51.489Y12.541
X51.572Y12.319
X51.610Y12.206
X51.681Y11.957
X51.718Y11.807
X51.756Y11.657
X51.793Y11.506
X51.831Y11.356
X51.869Y11.206
G2X51.937Y10.746I-1.519J-0.460
G1Y10.558
G2X51.869Y10.099I-1.587J0.000
G1X51.831Y9.948
X51.760Y9.700
X51.756Y9.685
X51.685Y9.437
X51.681Y9.422
G2X51.227Y8.590I-1.557J0.309
G1X51.190Y8.553
X51.165Y8.528
X51.149Y8.496
X51.111Y8.421
X51.009Y8.236
X51.004Y8.220
X50.967Y8.070
X50.929Y7.919
X50.907Y7.824
X50.854Y7.581
X50.817Y7.431
X50.795Y7.336
X50.769Y7.197
X50.727Y6.916
G2X50.547Y6.317I-1.581J0.148
G1X50.510Y6.241
X50.472Y6.166
X50.316Y5.902
G2X49.631Y5.288I-1.357J0.823
G2X48.884Y5.101I-0.747J1.401
G1X48.846
G2X48.099Y5.288I0.000J1.588
G1X47.835Y5.444
X47.722Y5.519
X47.609Y5.594
X47.407Y5.740
X47.257Y5.852
X47.028Y6.036
X46.859Y6.114
X46.784Y6.152
X46.709Y6.189
X46.633Y6.227
X46.558Y6.264
X46.483Y6.302
X46.408Y6.340
X46.333Y6.377
X46.297Y6.395
X46.264Y6.162
X46.301Y5.824
Y5.754
X46.338Y5.416
X46.375Y5.118
X46.413Y4.818
X46.451Y4.471
Y3.307
X46.422Y3.006
X46.451Y2.705
Y2.668
X46.406Y2.295
X46.361Y2.038
X46.337Y1.908
X46.298Y1.599
G2X46.114Y0.944I-1.585J0.092
G1X46.109Y0.933
X46.001Y0.681
X45.996Y0.670
G2X45.770Y0.229I-1.509J0.494
G1X45.601Y0.000
X63.442
X63.496Y0.004
X63.500Y0.058
Y88.842
X63.496Y88.896
X63.442Y88.900
X0.058
X0.004Y88.896
X0.000Y88.842
Y0.058
X0.004Y0.004
X0.058Y0.000
X42.618
G0Z5.080
G0X32.171Y0.001
G1Z-5.000F300.0
G1X0.040F1000.0
X0.004Y0.004
X0.000Y0.058
Y2.224
X28.207
X28.072Y2.282
X28.062Y2.286
X27.809Y2.394
X27.734Y2.432
X27.497Y2.568
X27.471Y2.582
X27.234Y2.719
X27.019Y2.851
X26.906Y2.926
X26.739Y3.043
X26.588Y3.180
X26.551Y3.217
X26.432Y3.346
X26.328Y3.487
X26.240Y3.638
X26.231Y3.651
X26.027Y3.693
X25.828Y3.763
X25.639Y3.859
X25.465Y3.979
X25.311Y4.119
X25.273Y4.157
X25.236Y4.194
X25.198Y4.232
X25.161Y4.269
X25.123Y4.307
X25.085Y4.345
X25.048Y4.382
X25.010Y4.420
X24.984Y4.446
X0.000
Y6.669
X22.611
X22.606Y6.674
X22.568Y6.712
X22.431Y6.863
X22.314Y7.030
X22.158Y7.294
X22.121Y7.369
X22.083Y7.444
X22.046Y7.519
X22.008Y7.594
X21.970Y7.669
X21.933Y7.744
X21.895Y7.820
X21.858Y7.895
X21.820Y7.970
X21.783Y8.045
X21.745Y8.120
X21.707Y8.195
X21.670Y8.270
X21.632Y8.346
X21.595Y8.421
X21.557Y8.496
X21.519Y8.571
X21.482Y8.646
X21.444Y8.721
X21.407Y8.797
X21.369Y8.872
X21.361Y8.891
X0.000
Y11.114
X21.012
X21.009Y11.131
X20.972Y11.318
X20.934Y11.506
X20.897Y11.694
X20.851Y11.951
X20.818Y12.136
X20.807Y12.324
Y12.587
X20.844Y12.931
Y13.001
X20.881Y13.336
X0.000
Y15.559
X20.069
X19.955Y15.626
X19.696Y15.823
X19.508Y15.973
X19.261Y16.180
X19.224Y16.218
X19.186Y16.256
X19.149Y16.293
X19.111Y16.331
X19.074Y16.368
X19.036Y16.406
X19.015Y16.427
X19.005Y16.433
X18.848Y16.525
X18.642Y16.587
X18.450Y16.657
X18.267Y16.752
X18.098Y16.870
X17.946Y17.007
X17.909Y17.045
X17.871Y17.082
X17.834Y17.120
X17.796Y17.157
X17.759Y17.195
X17.737Y17.216
X17.563Y17.355
X17.408Y17.518
X17.279Y17.701
X17.232Y17.781
X0.000
Y20.004
X16.272
X16.227Y20.068
X16.185Y20.128
X16.039Y20.331
X15.964Y20.443
X15.834Y20.655
X15.738Y20.885
X15.663Y21.073
X15.588Y21.261
X15.512Y21.449
X15.428Y21.667
X15.376Y21.897
X15.358Y22.131
Y22.201
X15.356Y22.226
X0.000
Y24.449
X14.425
X14.423Y24.455
X14.418Y24.465
X14.310Y24.718
X14.235Y24.906
X14.230Y24.916
X14.107Y25.218
X14.036Y25.466
X13.999Y25.617
X13.994Y25.631
X13.923Y25.880
X13.886Y26.030
X13.848Y26.180
X13.797Y26.408
X13.780Y26.640
Y26.671
X0.000
Y28.894
X13.487
X13.325Y29.031
X13.287Y29.068
X13.250Y29.106
X13.045Y29.348
X12.841Y29.597
X12.737Y29.734
X12.621Y29.673
X12.445Y29.592
X12.259Y29.534
X12.067Y29.498
X11.873Y29.486
X11.723
X11.491Y29.503
X11.263Y29.554
X11.043Y29.615
X10.824Y29.711
X10.617Y29.844
X10.430Y30.010
X10.270Y30.205
X10.143Y30.421
X10.054Y30.650
X10.002Y30.883
X9.985Y31.111
Y31.116
X0.000
Y33.339
X9.740
X9.760Y33.521
Y33.591
X9.798Y33.937
X9.818Y34.147
X9.865Y34.351
X9.903Y34.502
X9.941Y34.652
X9.978Y34.802
X10.000Y34.898
X10.023Y35.024
Y35.169
X10.060Y35.513
Y35.561
X0.000
Y37.784
X10.173
Y37.837
X10.211Y38.180
Y38.288
X10.248Y38.631
Y39.114
X10.261Y39.319
X10.301Y39.519
X10.354Y39.762
X10.376Y39.857
X10.406Y40.006
X0.000
Y42.229
X10.132
X10.073Y42.266
X9.960Y42.341
X9.875Y42.397
X9.660Y42.529
X9.493Y42.646
X9.342Y42.783
X9.304Y42.820
X9.267Y42.858
X9.229Y42.896
X9.192Y42.933
X8.971Y43.199
X8.825Y43.401
X8.669Y43.665
X8.632Y43.740
X8.594Y43.815
X8.556Y43.891
X8.519Y43.966
X8.481Y44.041
X8.444Y44.116
X8.321Y44.418
X8.310Y44.451
X0.000
Y46.674
X8.079
X8.133Y46.849
X8.170Y46.962
X8.261Y47.199
X8.283Y47.262
X8.321Y47.375
X8.358Y47.488
X8.481Y47.790
X8.604Y48.006
X8.759Y48.201
X8.966Y48.447
X9.004Y48.484
X9.041Y48.522
X9.079Y48.560
X9.117Y48.597
X9.124Y48.605
X9.159Y48.851
Y48.884
X9.160Y48.896
X0.000
Y51.119
X9.364
X9.399Y51.317
X9.429Y51.474
X9.432Y51.504
X9.415Y51.580
X9.377Y51.731
X9.357Y51.802
X9.289Y52.000
X9.248Y52.207
X9.234Y52.416
Y52.899
X9.196Y53.242
Y53.341
X0.000
Y55.564
X10.263
X10.316Y55.806
X10.326Y55.852
X10.361Y56.103
X10.385Y56.374
X10.187Y56.463
X10.003Y56.565
X10.000Y56.566
X9.808Y56.635
X9.625Y56.730
X9.456Y56.848
X9.304Y56.986
X9.167Y57.136
X9.051Y57.303
X9.009Y57.364
X8.863Y57.567
X8.788Y57.679
X8.722Y57.786
X0.000
Y60.009
X8.137
X8.117Y60.127
X8.107Y60.306
Y60.489
X8.070Y60.787
X8.031Y61.128
X7.995Y61.425
X7.987Y61.462
X7.934Y61.705
X7.912Y61.800
X7.858Y62.043
X7.836Y62.139
X7.813Y62.231
X0.000
Y64.454
X7.622
X7.626Y64.478
X7.682Y64.659
X7.719Y64.772
X7.757Y64.885
X7.795Y64.997
X7.885Y65.234
X7.993Y65.487
X8.085Y65.657
X8.197Y65.814
X8.327Y65.956
X8.365Y65.994
X8.403Y66.031
X8.577Y66.187
X8.775Y66.317
X8.992Y66.416
X9.220Y66.482
X9.452Y66.513
X9.628Y66.543
X9.807Y66.553
X10.091
X10.122Y66.676
X0.000
Y68.899
X10.584
X10.650Y69.131
X10.688Y69.243
X10.725Y69.356
X10.763Y69.469
X10.853Y69.706
X10.876Y69.769
X10.913Y69.882
X11.004Y70.119
X11.026Y70.183
X11.116Y70.420
X11.224Y70.672
X11.316Y70.842
X11.429Y70.999
X11.540Y71.121
X0.000
Y73.344
G0Z5.080
G0X18.381Y71.121
G1Z-5.000F300.0
G1X16.295F1000.0
G0Z5.080
G0X31.535Y68.899
G1Z-5.000F300.0
G1X31.898F1000.0
G0Z5.080
G0X57.603Y13.336
G1Z-5.000F300.0
G0X57.603Y13.336Z5.080
G0X63.460Y0.001
G1Z-5.000F300.0
G1X56.858F1000.0
X56.897Y0.079
X56.978Y0.255
X57.037Y0.441
X57.072Y0.633
X57.084Y0.827
Y0.934
X57.119Y1.185
X57.149Y1.362
X57.159Y1.541
Y1.611
X57.197Y1.954
Y2.224
X63.500
Y4.446
X57.607
X57.656Y4.457
X57.879Y4.545
X58.086Y4.665
X58.270Y4.813
X58.517Y5.021
X58.657Y5.176
X58.778Y5.351
X58.875Y5.542
X58.945Y5.745
X58.987Y5.954
X59.001Y6.162
Y6.425
X58.987Y6.632
X58.989Y6.669
X63.500
Y8.891
X58.054
X57.991Y8.936
X57.822Y9.028
X57.747Y9.066
X57.445Y9.189
X57.441Y9.191
X57.422Y9.286
Y9.614
X57.453Y9.810
X57.491Y10.035
X57.528Y10.260
X57.558Y10.417
X57.603Y10.674
X57.633Y10.830
X57.679Y11.087
X57.683Y11.114
X63.500
Y13.336
X57.603
X57.558Y13.593
X57.528Y13.749
X57.483Y14.006
X57.445Y14.194
X57.424Y14.316
X57.460Y14.654
Y14.686
X57.497Y14.984
X57.532Y15.238
X57.570Y15.501
X57.580Y15.559
X63.500
Y17.781
X57.737
X57.761Y17.998
Y18.105
X57.798Y18.449
Y18.749
X57.788Y18.928
X57.758Y19.105
X57.720Y19.368
X57.683Y19.631
X57.648Y19.882
Y20.004
X63.500
Y22.226
X57.434
X57.420Y22.336
X57.378Y22.617
X57.332Y22.874
X57.295Y23.062
X57.257Y23.250
X57.235Y23.376
Y23.559
X57.197Y23.902
Y24.010
X57.187Y24.189
X57.157Y24.365
X57.145Y24.449
X63.500
Y26.671
X56.447
X56.446Y26.673
X56.409Y26.748
X56.371Y26.824
X56.334Y26.899
X56.329Y26.909
X56.254Y27.097
X56.179Y27.285
X56.156Y27.348
X56.119Y27.461
X56.081Y27.574
X56.044Y27.686
X56.006Y27.799
X55.916Y28.036
X55.808Y28.289
X55.770Y28.364
X55.733Y28.439
X55.695Y28.514
X55.657Y28.590
X55.620Y28.665
X55.582Y28.740
X55.545Y28.815
X55.507Y28.890
X55.505Y28.894
X63.500
Y31.116
X54.575
X54.574Y31.120
X54.536Y31.270
X54.499Y31.421
X54.492Y31.455
Y31.600
X54.453Y31.946
X54.414Y32.256
X54.376Y32.519
X54.339Y32.782
X54.301Y33.045
X54.279Y33.230
X54.253Y33.339
X63.500
Y35.561
X53.695
X53.672Y35.667
X53.635Y35.817
X53.613Y35.912
X53.575Y36.100
X53.537Y36.288
X53.500Y36.476
X53.474Y36.614
X53.453Y36.800
X53.409Y36.982
X53.372Y37.132
X53.334Y37.282
X53.296Y37.432
X53.259Y37.583
X53.221Y37.733
X53.209Y37.784
X63.500
Y40.006
X52.876
Y40.016
X52.838Y40.360
X52.798Y40.710
X52.763Y40.964
X52.726Y41.261
Y41.369
X52.688Y41.712
Y41.820
X52.678Y41.999
X52.648Y42.175
X52.640Y42.229
X63.500
Y44.451
X52.425
Y44.488
X52.414Y44.675
X52.381Y44.861
X52.350Y45.056
X52.312Y45.395
X52.295Y45.627
X52.243Y45.855
X52.158Y46.072
X52.083Y46.260
X52.008Y46.447
X51.933Y46.635
X51.918Y46.674
X63.500
Y48.896
X51.414
X51.411Y48.926
Y48.996
X51.373Y49.340
Y49.823
X51.362Y50.012
X51.328Y50.200
X51.272Y50.381
X51.234Y50.494
X51.197Y50.607
X51.106Y50.844
X51.084Y50.907
X51.046Y51.020
X51.013Y51.119
X63.500
Y53.341
X49.639
X49.612Y53.369
X49.574Y53.407
X49.536Y53.444
X49.499Y53.482
X49.461Y53.519
X49.430Y53.550
X49.307Y53.732
X49.161Y53.895
X49.123Y53.933
X49.086Y53.970
X49.065Y53.991
X48.860Y54.233
X48.823Y54.271
X48.785Y54.308
X48.747Y54.346
X48.710Y54.383
X48.672Y54.421
X48.486Y54.585
X48.276Y54.719
X48.048Y54.818
X48.030Y54.854
X48.025Y54.864
X47.950Y55.052
X47.928Y55.115
X47.837Y55.352
X47.815Y55.416
X47.786Y55.504
X47.775Y55.564
X63.500
Y57.786
X47.315
X47.278Y57.860
X47.241Y57.935
X47.149Y58.104
X47.036Y58.262
X46.906Y58.404
X46.869Y58.441
X46.831Y58.479
X46.794Y58.517
X46.552Y58.721
X46.531Y58.742
X46.493Y58.780
X46.351Y58.910
X46.193Y59.022
X46.024Y59.114
X45.949Y59.152
X45.786Y59.227
X45.771Y59.260
X45.663Y59.513
X45.625Y59.588
X45.620Y59.598
X45.512Y59.851
X45.475Y59.926
X45.437Y60.001
X45.434Y60.009
X63.500
Y62.231
X42.824
X42.718Y62.366
X42.689Y62.407
X42.543Y62.610
X42.322Y62.875
X42.057Y63.096
X41.854Y63.242
X41.741Y63.317
X41.477Y63.473
X41.286Y63.559
X41.085Y63.620
X40.878Y63.653
X40.693Y63.686
X40.505Y63.697
X40.327
X40.303Y63.732
X40.191Y63.920
X40.177Y63.947
X40.040Y64.183
X39.908Y64.399
X39.871Y64.454
X63.500
Y66.676
X37.801
X37.738Y66.745
X37.701Y66.783
X37.663Y66.820
X37.625Y66.858
X37.588Y66.896
X37.550Y66.933
X37.513Y66.971
X37.362Y67.108
X37.195Y67.224
X36.931Y67.381
X36.755Y67.461
X36.569Y67.520
X36.377Y67.556
X36.184Y67.567
X36.000
X35.979Y67.628
X35.942Y67.740
X35.904Y67.853
X35.866Y67.966
X35.829Y68.078
X35.772Y68.241
X35.697Y68.396
X35.607Y68.542
X35.494Y68.730
X35.390Y68.899
X63.500
Y71.121
X29.255
X29.077Y71.159
X28.857Y71.174
X28.744
X28.551Y71.163
X28.359Y71.127
X28.341Y71.121
X27.621
G0Z5.080
G0X0.000Y73.344
G1Z-5.000F300.0
G1X63.500F1000.0
Y75.566
X0.000
Y77.789
X63.500
Y80.011
X0.000
Y82.234
X63.500
Y84.456
X0.000
Y86.678
X63.500
Y88.842
X63.496Y88.896
X63.460Y88.899
X0.040
G0Z5.080
G0X0.000Y0.058
G1Z-5.000F300.0
G1X0.004Y0.004F1000.0
X0.058Y0.000
X32.173
X32.149Y0.024
X32.112Y0.061
X32.074Y0.099
X32.053Y0.120
X31.811Y0.324
X31.774Y0.362
X31.753Y0.383
X31.716Y0.409
X31.513Y0.555
X31.363Y0.667
X31.302Y0.709
X31.199Y0.777
X31.117Y0.806
X31.078Y0.818
X30.707Y0.870
X30.519Y0.907
X30.331Y0.945
G2X29.800Y1.117I0.217J1.573
G1X29.725Y1.154
X29.650Y1.192
X29.575Y1.230
X29.500Y1.267
X29.425Y1.305
G2X28.956Y1.639I0.672J1.438
G1X28.918Y1.677
X28.880Y1.714
X28.843Y1.752
X28.805Y1.790
X28.601Y2.032
X28.580Y2.053
X28.559Y2.073
X28.532Y2.092
X28.325Y2.174
X28.072Y2.282
X28.062Y2.286
X27.809Y2.394
X27.734Y2.432
X27.497Y2.568
X27.471Y2.582
X27.234Y2.719
X27.019Y2.851
X26.906Y2.926
X26.588Y3.180
X26.551Y3.217
G2X26.240Y3.638I1.104J1.141
G1X26.231Y3.651
G2X25.311Y4.119I0.221J1.572
G1X25.273Y4.157
X25.236Y4.194
X25.198Y4.232
X25.161Y4.269
X25.123Y4.307
X25.085Y4.345
X25.048Y4.382
X25.010Y4.420
X24.973Y4.457
X24.935Y4.495
X24.898Y4.533
X24.860Y4.570
X24.606Y4.888
X24.450Y5.152
X24.413Y5.227
X24.385Y5.282
X24.372Y5.290
X23.976Y5.438
X23.901Y5.475
G2X23.432Y5.810I0.672J1.438
G1X23.395Y5.848
X23.357Y5.885
X23.319Y5.923
X23.282Y5.960
X23.244Y5.998
X23.207Y6.035
X23.169Y6.073
X23.132Y6.111
X23.094Y6.148
X23.056Y6.186
X22.852Y6.428
X22.831Y6.449
X22.793Y6.486
X22.756Y6.524
X22.718Y6.561
X22.681Y6.599
X22.643Y6.637
X22.606Y6.674
X22.568Y6.712
X22.314Y7.030
X22.158Y7.294
X22.121Y7.369
X22.083Y7.444
X22.046Y7.519
X22.008Y7.594
X21.970Y7.669
X21.933Y7.744
X21.895Y7.820
X21.858Y7.895
X21.820Y7.970
X21.783Y8.045
X21.745Y8.120
X21.707Y8.195
X21.670Y8.270
X21.632Y8.346
X21.595Y8.421
X21.557Y8.496
X21.519Y8.571
X21.482Y8.646
X21.444Y8.721
X21.407Y8.797
X21.369Y8.872
X21.246Y9.174
G2X21.145Y9.732I1.486J0.558
G1Y10.177
X21.114Y10.373
X21.070Y10.700
X21.033Y11.001
X21.009Y11.131
X20.972Y11.318
X20.934Y11.506
X20.897Y11.694
X20.851Y11.951
X20.807Y12.324
Y12.587
X20.844Y12.931
Y13.001
X20.882Y13.344
Y13.414
X20.919Y13.757
X20.958Y14.098
X20.995Y14.399
X21.032Y14.697
Y14.767
X21.070Y15.110
Y15.239
X20.975Y15.261
X20.819Y15.290
G2X20.219Y15.470I0.148J1.581
G1X19.955Y15.626
X19.696Y15.823
X19.508Y15.973
X19.261Y16.180
X19.224Y16.218
X19.186Y16.256
X19.149Y16.293
X19.111Y16.331
X19.074Y16.368
X19.036Y16.406
X19.015Y16.427
X19.005Y16.433
X18.848Y16.525
X18.642Y16.587
G2X17.946Y17.007I0.445J1.524
G1X17.909Y17.045
X17.871Y17.082
X17.834Y17.120
X17.796Y17.157
X17.759Y17.195
X17.737Y17.216
G2X17.279Y17.701I0.899J1.308
G1X17.123Y17.965
X17.086Y18.040
X16.978Y18.293
X16.973Y18.303
X16.935Y18.378
X16.898Y18.453
X16.790Y18.706
X16.785Y18.716
X16.662Y19.018
X16.624Y19.131
X16.587Y19.243
X16.549Y19.356
X16.512Y19.469
X16.474Y19.582
X16.452Y19.645
X16.377Y19.833
X16.372Y19.843
X16.341Y19.905
X16.227Y20.068
X16.185Y20.128
X16.039Y20.331
X15.964Y20.443
G2X15.738Y20.885I1.282J0.936
G1X15.663Y21.073
X15.588Y21.261
X15.512Y21.449
G2X15.358Y22.131I1.433J0.682
G1Y22.201
X15.321Y22.544
Y23.127
X15.316Y23.132
X15.279Y23.169
X15.241Y23.207
X15.204Y23.244
X15.166Y23.282
X14.912Y23.600
X14.837Y23.712
X14.795Y23.773
X14.568Y24.127
X14.531Y24.202
X14.423Y24.455
X14.418Y24.465
X14.310Y24.718
X14.235Y24.906
X14.230Y24.916
X14.107Y25.218
X14.036Y25.466
X13.999Y25.617
X13.994Y25.631
X13.923Y25.880
X13.886Y26.030
X13.848Y26.180
G2X13.780Y26.640I1.519J0.460
G1Y26.715
X13.821Y27.070
X13.862Y27.351
X13.908Y27.608
X13.945Y27.796
G2X14.117Y28.327I1.573J-0.217
G1X14.128Y28.349
X14.060Y28.410
X13.830Y28.601
X13.588Y28.805
X13.567Y28.826
X13.325Y29.031
X13.287Y29.068
X13.250Y29.106
X13.045Y29.348
X12.841Y29.597
X12.737Y29.734
X12.621Y29.673
G2X11.873Y29.486I-0.747J1.401
G1X11.723
G2X11.263Y29.554I0.000J1.588
G2X9.985Y31.111I0.309J1.557
G1Y31.186
X9.986Y31.225
X9.899Y31.455
G2X9.800Y31.921I1.486J0.558
G1X9.760Y32.276
Y32.308
X9.722Y32.652
Y33.178
X9.760Y33.521
Y33.591
X9.798Y33.937
X9.865Y34.351
X9.903Y34.502
X9.941Y34.652
X9.978Y34.802
X10.000Y34.898
X10.023Y35.024
Y35.169
X10.060Y35.513
Y35.615
X10.023Y35.958
Y36.597
X10.063Y36.952
X10.101Y37.215
X10.138Y37.478
X10.173Y37.729
Y37.837
X10.211Y38.180
Y38.288
X10.248Y38.631
Y39.114
X10.301Y39.519
X10.354Y39.762
X10.376Y39.857
X10.413Y40.045
X10.467Y40.288
X10.504Y40.438
X10.542Y40.589
X10.613Y40.837
X10.617Y40.852
X10.654Y41.002
X10.725Y41.251
X10.730Y41.265
X10.737Y41.302
X10.750Y41.463
X10.703Y41.588
X10.620Y41.800
X10.394Y41.994
X10.251Y42.152
X10.245Y42.157
X10.073Y42.266
X9.960Y42.341
X9.875Y42.397
X9.660Y42.529
X9.342Y42.783
X9.304Y42.820
X9.267Y42.858
X9.229Y42.896
X9.192Y42.933
X8.971Y43.199
X8.825Y43.401
X8.669Y43.665
X8.632Y43.740
X8.594Y43.815
X8.556Y43.891
X8.519Y43.966
X8.481Y44.041
X8.444Y44.116
X8.321Y44.418
X8.283Y44.531
X8.245Y44.643
X8.159Y44.985
X8.109Y45.297
X8.069Y45.652
Y45.722
X8.031Y46.066
Y46.291
G2X8.133Y46.849I1.588J0.000
G1X8.170Y46.962
X8.261Y47.199
X8.283Y47.262
X8.321Y47.375
X8.358Y47.488
X8.481Y47.790
G2X8.759Y48.201I1.438J-0.672
G1X8.966Y48.447
X9.004Y48.484
X9.041Y48.522
X9.079Y48.560
X9.117Y48.597
X9.124Y48.605
X9.159Y48.851
Y48.884
X9.196Y49.227
Y49.823
X9.236Y50.178
X9.272Y50.432
X9.310Y50.733
X9.353Y51.060
X9.399Y51.317
X9.429Y51.474
X9.432Y51.504
X9.415Y51.580
X9.377Y51.731
X9.357Y51.802
G2X9.234Y52.416I1.464J0.613
G1Y52.899
X9.196Y53.242
Y53.355
G2X9.680Y54.496I1.588J0.000
G1X9.718Y54.534
X9.755Y54.571
X9.793Y54.609
X9.830Y54.646
X10.096Y54.867
X10.111Y54.880
X10.155Y54.953
X10.180Y55.081
X10.218Y55.306
X10.263Y55.563
X10.316Y55.806
X10.326Y55.852
X10.361Y56.103
X10.385Y56.374
X10.187Y56.463
X10.003Y56.565
X10.000Y56.566
G2X9.304Y56.986I0.445J1.524
G1X9.051Y57.303
X9.009Y57.364
X8.863Y57.567
X8.788Y57.679
G2X8.561Y58.121I1.282J0.936
G1X8.471Y58.358
X8.433Y58.471
X8.396Y58.583
X8.325Y58.832
X8.272Y59.075
X8.220Y59.434
X8.184Y59.688
X8.147Y59.951
X8.107Y60.306
Y60.489
X8.070Y60.787
X8.031Y61.128
X7.995Y61.425
X7.987Y61.462
X7.934Y61.705
X7.912Y61.800
X7.858Y62.043
X7.836Y62.139
X7.799Y62.289
X7.761Y62.439
X7.708Y62.682
X7.656Y63.041
X7.618Y63.387
Y63.495
X7.581Y63.838
Y64.101
G2X7.682Y64.659I1.588J0.000
G1X7.719Y64.772
X7.757Y64.885
X7.795Y64.997
X7.885Y65.234
X7.993Y65.487
G2X8.327Y65.956I1.438J-0.672
G1X8.365Y65.994
X8.403Y66.031
G2X9.452Y66.513I1.141J-1.104
G1X9.807Y66.553
X10.091
X10.128Y66.703
X10.166Y66.853
X10.220Y67.055
X10.255Y67.255
X10.286Y67.450
X10.330Y67.818
X10.391Y68.130
X10.429Y68.281
X10.467Y68.431
X10.489Y68.526
X10.575Y68.867
X10.579Y68.882
X10.650Y69.131
X10.688Y69.243
X10.725Y69.356
X10.763Y69.469
X10.853Y69.706
X10.876Y69.769
X10.913Y69.882
X11.004Y70.119
X11.026Y70.183
X11.116Y70.420
X11.224Y70.672
G2X11.559Y71.141I1.438J-0.672
G1X11.596Y71.179
X11.634Y71.217
G2X12.103Y71.551I1.141J-1.104
G1X12.356Y71.659
X12.593Y71.750
G2X13.151Y71.851I0.558J-1.486
G1X13.752
G2X14.212Y71.783I0.000J-1.587
G1X14.460Y71.712
X14.475Y71.708
X14.848Y71.584
X14.911Y71.562
X14.926Y71.557
X15.099Y71.513
X15.105
G2X15.852Y71.326I0.000J-1.588
G1X15.927Y71.288
X16.064Y71.216
G2X16.901Y70.599I-0.471J-1.516
G1X17.105Y70.350
X17.218Y70.200
X17.364Y69.997
X17.386Y69.965
X17.476Y70.011
G2X18.093Y70.192I0.747J-1.401
G1X18.094Y70.197
X18.132Y70.347
X18.169Y70.498
X18.207Y70.648
G2X18.363Y71.086I1.557J-0.309
G1X18.401Y71.161
X18.438Y71.236
X18.476Y71.311
X18.514Y71.386
G2X18.848Y71.855I1.438J-0.672
G1X18.869Y71.876
X19.074Y72.118
X19.094Y72.139
X19.299Y72.381
X19.337Y72.419
X19.374Y72.457
X19.412Y72.494
G2X19.832Y72.805I1.141J-1.104
G1X20.069Y72.941
X20.144Y72.979
X20.219Y73.017
G2X20.961Y73.203I0.747J-1.401
G1X21.304Y73.241
X21.530
G2X22.671Y72.757I0.000J-1.587
G1X22.709Y72.720
X22.746Y72.682
X22.784Y72.644
X22.988Y72.402
X23.118Y72.256
G2X23.432Y72.682I1.417J-0.715
G1X23.470Y72.720
G2X24.456Y73.196I1.141J-1.104
G2X25.062Y73.316I0.606J-1.467
G1X25.175
G2X25.922Y73.129I0.000J-1.587
G1X25.997Y73.092
X26.072Y73.054
X26.082Y73.049
X26.335Y72.941
G2X26.804Y72.607I-0.672J-1.438
G1X27.058Y72.289
X27.214Y72.025
X27.252Y71.950
X27.289Y71.875
X27.327Y71.800
X27.364Y71.724
X27.472Y71.472
X27.477Y71.461
X27.585Y71.209
X27.590Y71.198
X27.713Y70.896
X27.735Y70.833
X27.997Y70.988
G2X28.744Y71.174I0.747J-1.401
G1X28.857
G2X29.883Y70.798I0.000J-1.587
G1X29.943Y70.756
X30.056Y70.681
X30.374Y70.428
X30.411Y70.390
X30.449Y70.352
X30.486Y70.315
X30.524Y70.277
X30.562Y70.240
X30.782Y69.974
X30.895Y69.824
X30.995Y69.693
X31.191Y69.433
X31.266Y69.321
X31.341Y69.208
X31.474Y68.993
X31.529Y68.907
X31.604Y68.795
X31.646Y68.734
X31.679Y68.695
X31.702
X31.811Y68.812
X31.849Y68.849
X31.886Y68.887
X31.924Y68.925
X31.962Y68.962
X31.999Y69.000
X32.037Y69.037
X32.074Y69.075
X32.112Y69.112
X32.149Y69.150
X32.187Y69.188
X32.452Y69.408
X32.806Y69.635
X32.881Y69.673
X33.183Y69.796
G2X33.741Y69.897I0.558J-1.486
G1X33.854
G2X34.995Y69.413I0.000J-1.587
G1X35.033Y69.375
X35.287Y69.058
X35.362Y68.945
X35.494Y68.730
X35.607Y68.542
G2X35.829Y68.078I-1.302J-0.909
G1X35.866Y67.966
X35.904Y67.853
X35.942Y67.740
X35.979Y67.628
X36.000Y67.567
X36.184
G2X36.931Y67.381I0.000J-1.588
G1X37.195Y67.224
X37.513Y66.971
X37.550Y66.933
X37.588Y66.896
X37.625Y66.858
X37.663Y66.820
X37.701Y66.783
X37.738Y66.745
G2X38.073Y66.276I-1.104J-1.141
G1X38.110Y66.201
X38.148Y66.126
X38.256Y65.873
X38.306Y65.756
X38.357Y65.738
X38.659Y65.615
X38.735Y65.577
G2X39.204Y65.242I-0.672J-1.438
G1X39.241Y65.205
X39.279Y65.167
X39.483Y64.925
X39.504Y64.904
X39.542Y64.867
X39.579Y64.829
X39.833Y64.511
X39.908Y64.399
X40.040Y64.183
X40.177Y63.947
X40.191Y63.920
X40.303Y63.732
X40.327Y63.697
X40.505
X40.878Y63.653
G2X41.477Y63.473I-0.148J-1.581
G1X41.741Y63.317
X41.854Y63.242
X42.057Y63.096
X42.322Y62.875
X42.543Y62.610
X42.689Y62.407
X42.718Y62.366
X42.881Y62.159
X43.027Y61.956
X43.102Y61.844
X43.174Y61.736
X43.580Y61.642
X43.701Y61.602
G2X44.145Y61.444I-0.303J-1.558
G2X44.614Y61.109I-0.672J-1.438
G1X44.652Y61.072
X44.689Y61.034
X44.727Y60.996
X44.765Y60.959
X44.802Y60.921
X44.840Y60.884
X45.060Y60.618
X45.263Y60.313
X45.400Y60.077
X45.437Y60.001
X45.475Y59.926
X45.512Y59.851
X45.620Y59.598
X45.625Y59.588
X45.663Y59.513
X45.771Y59.260
X45.786Y59.227
X45.949Y59.152
X46.024Y59.114
G2X46.493Y58.780I-0.672J-1.438
G1X46.531Y58.742
X46.552Y58.721
X46.794Y58.517
X46.831Y58.479
X46.869Y58.441
X46.906Y58.404
G2X47.241Y57.935I-1.104J-1.141
G1X47.278Y57.860
X47.316Y57.785
X47.354Y57.709
G2X47.540Y57.008I-1.401J-0.747
G1X47.571Y56.809
X47.609Y56.584
X47.646Y56.358
X47.684Y56.133
X47.721Y55.907
X47.763Y55.627
X47.786Y55.504
X47.815Y55.416
X47.837Y55.352
X47.928Y55.115
X47.950Y55.052
X48.025Y54.864
X48.030Y54.854
X48.048Y54.818
G2X48.672Y54.421I-0.517J-1.501
G1X48.710Y54.383
X48.747Y54.346
X48.785Y54.308
X48.823Y54.271
X48.860Y54.233
X49.065Y53.991
X49.086Y53.970
X49.123Y53.933
X49.161Y53.895
X49.430Y53.550
X49.461Y53.519
X49.499Y53.482
X49.536Y53.444
X49.574Y53.407
X49.612Y53.369
X49.649Y53.331
X49.687Y53.294
X49.724Y53.256
X49.762Y53.219
X49.799Y53.181
X49.837Y53.144
X49.875Y53.106
X49.912Y53.068
X49.950Y53.031
X49.987Y52.993
X50.025Y52.956
X50.062Y52.918
X50.316Y52.600
X50.472Y52.336
X50.510Y52.261
X50.547Y52.186
X50.585Y52.111
X50.623Y52.036
X50.730Y51.783
X50.735Y51.773
X50.773Y51.698
X50.881Y51.445
X50.886Y51.435
X51.009Y51.133
X51.046Y51.020
X51.084Y50.907
X51.106Y50.844
X51.197Y50.607
X51.234Y50.494
X51.272Y50.381
G2X51.373Y49.823I-1.486J-0.558
G1Y49.340
X51.411Y48.996
Y48.926
X51.448Y48.583
Y48.551
X51.485Y48.253
X51.508Y48.124
X51.530Y48.028
X51.584Y47.785
X51.606Y47.690
X51.610Y47.676
X51.681Y47.427
X51.685Y47.413
X51.756Y47.164
X51.760Y47.150
X51.798Y47.037
X51.864Y46.809
X51.933Y46.635
X52.008Y46.447
X52.083Y46.260
X52.158Y46.072
G2X52.312Y45.395I-1.433J-0.682
G1X52.350Y45.056
X52.381Y44.861
X52.425Y44.488
Y43.892
X52.463Y43.548
Y43.516
X52.500Y43.178
X52.535Y42.927
X52.568Y42.719
X52.610Y42.438
X52.648Y42.175
X52.688Y41.820
Y41.712
X52.726Y41.369
Y41.261
X52.763Y40.964
X52.798Y40.710
X52.838Y40.360
X52.876Y40.016
Y39.796
X52.914Y39.453
Y39.345
X52.951Y39.007
X52.989Y38.664
Y38.631
X52.996Y38.597
X53.033Y38.447
X53.071Y38.297
X53.075Y38.282
X53.146Y38.034
X53.184Y37.883
X53.221Y37.733
X53.259Y37.583
X53.296Y37.432
X53.334Y37.282
X53.372Y37.132
X53.409Y36.982
X53.474Y36.614
X53.500Y36.476
X53.537Y36.288
X53.575Y36.100
X53.613Y35.912
X53.635Y35.817
X53.672Y35.667
X53.725Y35.424
X53.747Y35.328
X53.798Y35.102
X53.860Y34.877
X53.864Y34.863
X53.935Y34.614
X53.939Y34.600
X54.010Y34.351
X54.015Y34.337
X54.101Y33.996
X54.123Y33.901
X54.161Y33.750
X54.214Y33.507
X54.236Y33.412
X54.301Y33.045
X54.339Y32.782
X54.376Y32.519
X54.414Y32.256
X54.453Y31.946
X54.492Y31.600
Y31.455
X54.499Y31.421
X54.536Y31.270
X54.574Y31.120
X54.619Y30.931
X54.713Y30.704
X54.718Y30.694
X54.756Y30.619
X54.864Y30.366
X54.868Y30.356
X54.906Y30.280
X55.014Y30.028
X55.019Y30.017
X55.127Y29.765
X55.202Y29.577
X55.277Y29.389
X55.353Y29.198
X55.394Y29.116
X55.432Y29.040
X55.470Y28.965
X55.507Y28.890
X55.545Y28.815
X55.582Y28.740
X55.620Y28.665
X55.657Y28.590
X55.695Y28.514
X55.733Y28.439
X55.770Y28.364
X55.808Y28.289
X55.916Y28.036
X56.006Y27.799
X56.044Y27.686
X56.081Y27.574
X56.119Y27.461
X56.156Y27.348
X56.179Y27.285
X56.254Y27.097
X56.329Y26.909
X56.334Y26.899
X56.371Y26.824
X56.409Y26.748
X56.446Y26.673
X56.484Y26.598
X56.522Y26.523
X56.559Y26.448
X56.597Y26.373
X56.634Y26.298
X56.672Y26.222
X56.780Y25.970
